migueljohnlim13-jpg/EDS_TUPM-25-0156_Lim/EDS_TUPM-25-0156_Lim/data/data_cleaned.csv
Timestamp,Goal x,Goal y,Goal z,Goal roll,Goal pitch,Goal yaw,shoulder_pan_joint,shoulder_lift_joint,elbow_joint,wrist_1_joint,wrist_2_joint,wrist_3_joint,measurement_temperature,measurement_x,measurement_std_x,measurement_y,measurement_std_y,measurement_z,measurement_std_z,measurement_rx,measurement_std_rx,measurement_ry,measurement_std_ry,measurement_rz,measurement_std_rz,Formatted_Timestamp,error_x,error_y,error_z,position_error,error_roll,error_pitch,error_yaw,orientation_error,temp_deviation
20201100000000.0,0.000121973,-0.365141,1.4273,1.56998,1.57013,-2.78e-05,-3.14159,-1.5708,0.0,-1.5708,0.0,0.0,21.86750031,383.76294,0.031674,-3240.8734,0.013252,201.93157,0.0037622,-90.179302,0.0011832,-20.118749,0.0013871,-90.169308,0.0041345,,383.640967,-2875.7324,-1225.36843,3149.372162385881,-180.13252991994898,-110.08057128687594,-90.16771517732954,229.5553906370014,-0.17993311036789095
20201100000000.0,0.4,-0.4,0.8,2.96706,1.5708,1.5708,-0.908775,-0.052173,-1.92746,-1.16213,-2.05921,-0.000837151,21.86750031,-0.50720828,0.011904,-3343.1516,0.0080769,-426.95048,0.0088318,-90.14477,0.0014463,-30.089752,0.001215,-90.358505,0.0021268,,-400.50720828,-2943.1516,-1226.95048,3213.7135598617106,-260.14478556208604,-120.08996245914972,-180.35871545914972,338.5648752907753,-0.17993311036789095
20201100000000.0,0.4,-0.4,0.8,2.96706,1.5708,1.5708,-0.908775,-1.88313,1.92746,-3.18587,-2.05921,-0.000741784,21.86750031,1.8451966,0.0068993,-3343.6855,0.016631,-425.73515,0.0097318,-90.213735,0.0024908,-30.006856,0.0023744,-90.255949,0.0030282,,-398.1548034,-2943.6855,-1225.73515,3213.4464719870884,-260.21375056208603,-120.00706645914971,-180.25615945914973,338.53386094256615,-0.17993311036789095
20201100000000.0,0.4,-0.4,0.8,3.14159,1.74533,1.5708,-0.841786,0.0358257,-1.90435,-1.50533,-2.28693,-0.154798,21.86750031,-3.2082997,0.013365,-3343.832,0.015335,-429.99118,0.007278,-79.508862,0.002026,-19.809902,0.0019487,-86.743692,0.0045847,,-403.2082997,-2943.832,-1229.99118,3215.836140111737,-259.5087099605043,-119.80994485756798,-176.7439024591497,336.06189978726843,-0.17993311036789095
20201100000000.0,0.4,-0.4,0.8,3.14159,1.74533,1.5708,-0.84181,-1.77444,1.90438,-3.50392,-2.28699,-0.154678,21.86750031,-0.82334035,0.015948,-3344.2122,0.0066842,-428.63352,0.018188,-79.567582,0.0027268,-19.692841,0.0031241,-86.644097,0.0040867,,-400.82334035,-2944.2122,-1228.6335199999999,3215.3670327453697,-259.5674299605043,-119.69288385756798,-176.64430745914973,336.0131671529632,-0.17993311036789095
20201100000000.0,0.4,-0.4,0.8,3.14159,1.5708,1.39626,-0.783411,-0.0128868,-1.84347,-1.28527,-2.53335,-0.000860993,21.86750031,-5.352046,0.0086902,-3344.9515,0.010502,-427.06701,0.0068516,-90.02075,0.0011251,-10.015864,0.0010584,-90.232575,0.0031812,,-405.352046,-2944.9515,-1227.06701,3216.013536286652,-270.0205979605043,-100.0160744591497,-170.2323801029363,334.50471104108095,-0.17993311036789095
20201100000000.0,0.4,-0.4,0.8,3.14159,1.5708,1.39626,-0.783435,-1.7681,1.84351,-3.21686,-2.53334,-0.000801388,21.86750031,-3.300582,0.0084514,-3345.1177,0.0072351,-425.99118,0.0057034,-90.156764,0.0020959,-9.9181364,0.0020233,-90.214536,0.0049594,,-403.300582,-2945.1177,-1225.99118,3215.49747313423,-270.1566119605043,-99.91834685914971,-170.21434110293632,334.57613923014685,-0.17993311036789095
20201100000000.0,0.4,-0.4,0.8,3.14159,1.5708,1.74533,-0.908775,-0.0521372,-1.92741,-1.16211,-2.0592,-0.000777547,21.86750031,-0.5095574,0.017025,-3343.1496,0.014743,-426.94393,0.0063058,-90.146432,0.0013442,-30.091319,0.0011561,-90.353557,0.0021359,,-400.5095574,-2943.1496,-1226.94393,3213.7095203071403,-270.14627996050433,-120.09152945914971,-190.35359985756799,351.618374097646,-0.17993311036789095
20201100000000.0,0.4,-0.4,0.8,3.14159,1.5708,1.74533,-0.908775,-1.88313,1.9275,-3.18583,-2.05918,-0.000765626,21.86750031,1.8390731,0.012626,-3343.6846,0.01906,-425.75147,0.004872,-90.217981,0.0025605,-30.005337,0.0019178,-90.262716,0.0035491,,-398.1609269,-2943.6846,-1225.75147,3213.452631391069,-270.2178289605043,-120.00554745914971,-190.26275885756797,351.5948291957543,-0.17993311036789095
20201100000000.0,0.3,-0.4,0.8,2.96706,1.5708,1.5708,-1.1649,-0.13142,-2.02544,-0.984737,-1.80289,-0.00082523,21.86750031,93.829747,0.0077363,-3308.5862,0.010628,-426.53769,0.004006,-90.163683,0.0010021,-30.056056,0.00098333,-90.384436,0.0017778,,-206.170253,-2908.5862,-1226.53769,3163.3486309673585,-260.16369856208604,-120.05626645914971,-180.3846464591497,338.58127213980214,-0.17993311036789095
20201100000000.0,0.3,-0.4,0.8,2.96706,1.5708,1.5708,-1.16498,-2.04959,2.02534,-3.11722,-1.8028,-0.000765626,21.86750031,96.102251,0.0061717,-3309.8206,0.012097,-425.77034,0.0083331,-90.198366,0.0025058,-29.98443,0.0017695,-90.244315,0.002093,,-203.897749,-2909.8206,-1225.77034,3164.039055172256,-260.19838156208607,-119.98464045914972,-180.2445254591497,338.5079034108871,-0.17993311036789095
20201100000000.0,0.3,-0.4,0.8,3.14159,1.39626,1.5708,-1.06254,-0.178315,-1.9499,-0.814212,-2.07134,0.0955828,21.86750031,91.220439,0.012913,-3309.6559,0.0080185,-423.42565,0.0041634,-100.66879,0.0017423,-19.688754,0.0013791,-93.914679,0.0048966,,-208.779561,-2909.6559,-1223.4256500000001,3163.298386585446,-280.66863796050427,-99.68855910293632,-183.91488945914972,350.0533955204484,-0.17993311036789095
20201100000000.0,0.3,-0.4,0.8,3.14159,1.39626,1.5708,-1.06252,-2.02947,1.94986,-2.86264,-2.07127,0.0956427,21.86750031,93.583659,0.025121,-3310.7714,0.0065409,-422.57477,0.006381,-100.76179,0.0023571,-19.63544,0.001691,-93.811375,0.0063568,,-206.416341,-2910.7714,-1222.57477,3163.8405328224653,-280.7616379605043,-99.63524510293632,-183.8115854591497,350.0585356279629,-0.17993311036789095
20201100000000.0,0.3,-0.4,0.8,3.14159,1.74533,1.5708,-1.06254,-0.029177,-2.02579,-1.28583,-2.0713,-0.0972822,21.86750031,91.116117,0.017524,-3309.4853,0.012191,-429.40894,0.0085632,-79.431858,0.0014853,-19.783781,0.0016229,-86.69397,0.0064583,,-208.883883,-2909.4853,-1229.40894,3165.467347682672,-259.4317059605043,-119.78382385756798,-176.69418045914972,335.96697445381295,-0.17993311036789095
20201100000000.0,0.3,-0.4,0.8,3.14159,1.74533,1.5708,-1.06252,-1.94773,2.02583,-3.41891,-2.07139,-0.0971983,21.86750031,93.407532,0.0086708,-3310.3703,0.0059548,-428.66776,0.0035677,-79.554837,0.0018627,-19.68927,0.0014589,-86.640333,0.0035362,,-206.592468,-2910.3703,-1228.66776,3165.8427306832286,-259.5546849605043,-119.68931285756798,-176.6405434591497,336.00007096845553,-0.17993311036789095
20201100000000.0,0.3,-0.4,0.8,3.14159,1.5708,1.39626,-0.974749,-0.073118,-1.95973,-1.10874,-2.34221,-0.000860993,21.86750031,88.310831,0.0031367,-3310.5794,0.0098101,-426.51463,0.0039982,-90.044621,0.0010075,-10.076098,0.00099158,-90.284329,0.0018913,,-211.689169,-2910.5794,-1226.5146300000001,3165.536745258268,-270.04446896050433,-100.07630845914971,-170.28413410293632,334.56833241978904,-0.17993311036789095
20201100000000.0,0.3,-0.4,0.8,3.14159,1.5708,1.39626,-0.974809,-1.93322,1.95969,-3.16799,-2.34207,-0.000705544,21.86750031,90.72165,0.023999,-3311.3931,0.0096271,-425.6231,0.022221,-90.145063,0.0020142,-9.9877761,0.0024931,-90.19057,0.0067287,,-209.27835,-2911.3931,-1225.6231,3165.77939751966,-270.14491096050426,-99.98798655914972,-170.19037510293631,334.5753041569112,-0.17993311036789095
20201100000000.0,0.3,-0.4,0.8,3.14159,1.5708,1.74533,-1.16492,-0.131397,-2.02537,-0.984712,-1.80286,-0.000849072,21.86750031,93.813149,0.0065509,-3308.5817,0.013839,-426.54805,0.0032994,-90.166521,0.0011452,-30.057128,0.0014142,-90.387599,0.0019969,,-206.186851,-2908.5817,-1226.5480499999999,3163.3495921347344,-270.1663689605043,-120.05733845914972,-190.38764185756798,351.64056308577904,-0.17993311036789095
20201100000000.0,0.3,-0.4,0.8,3.14159,1.5708,1.74533,-1.16494,-2.04963,2.0253,-3.11719,-1.80285,-0.000765626,21.86750031,96.10598,0.0078757,-3309.8005,0.0070917,-425.78618,0.012404,-90.203276,0.0020001,-29.98467,0.0016053,-90.248378,0.0032455,,-203.89402,-2909.8005,-1225.78618,3164.0264664302354,-270.2031239605043,-119.98488045914971,-190.24842085756796,351.56871501259945,-0.17993311036789095
20201100000000.0,0.2,-0.4,0.8,2.96706,1.5708,1.5708,-1.56452,-0.23193,-2.09503,-0.814596,-1.40342,-0.000837151,21.86750031,187.92883,0.0065243,-3274.5173,0.0073374,-426.17083,0.0075154,-90.118155,0.0030522,-30.083144,0.0026964,-90.384517,0.0026908,,-12.071169999999995,-2874.5173,-1226.17083,3125.138449011075,-260.11817056208605,-120.08335445914972,-180.3847274591497,338.55594009740844,-0.17993311036789095
20201100000000.0,0.2,-0.4,0.8,2.96706,1.5708,1.5708,-1.56452,-2.21096,2.09495,-3.02544,-1.40348,-0.000897233,21.86750031,189.1487,0.0035925,-3275.5529,0.0045678,-425.84787,0.016419,-90.234941,0.0022161,-30.027249,0.0026201,-90.251882,0.0035509,,-10.851300000000009,-2875.5529,-1225.84787,3125.959889664875,-260.23495656208604,-120.02745945914971,-180.2520924591497,338.55522515092053,-0.17993311036789095
20201100000000.0,0.2,-0.4,0.8,3.14159,1.39626,1.5708,-1.40439,-0.270993,-2.02068,-0.672898,-1.73551,0.028291,21.86750031,185.41653,0.0023527,-3274.9309,0.0038305,-423.28279,0.0019797,-100.71576,0.0011297,-19.641837,0.0010427,-93.944328,0.0016101,,-14.583470000000005,-2874.9309,-1223.28279,3124.3977246314585,-280.7156079605043,-99.64164210293632,-183.94453845914973,350.0932770313575,-0.17993311036789095
20201100000000.0,0.2,-0.4,0.8,3.14159,1.39626,1.5708,-1.40437,-2.18499,2.02066,-2.80025,-1.73545,0.028303,21.86750031,186.95103,0.0064135,-3276.2267,0.0056976,-423.33427,0.0041143,-100.84699,0.0015741,-19.607372,0.0012807,-93.832913,0.00097672,,-13.048969999999997,-2876.2267,-1223.33427,3125.6034683829275,-280.84683796050433,-99.60717710293632,-183.8331234591497,350.1301949326514,-0.17993311036789095
20201100000000.0,0.2,-0.4,0.8,3.14159,1.74533,1.5708,-1.40439,-0.122555,-2.11692,-1.07916,-1.73548,-0.0299538,21.86750031,185.49196,0.0074379,-3275.1067,0.0026851,-429.05456,0.0091974,-79.462787,0.0035154,-19.749117,0.0030194,-86.721906,0.0060652,,-14.508039999999994,-2875.1067,-1229.05456,3126.823329046002,-259.4626349605043,-119.74915985756797,-176.72211645914973,335.9931943850092,-0.17993311036789095
20201100000000.0,0.2,-0.4,0.8,3.14159,1.74533,1.5708,-1.40439,-2.12043,2.11696,-3.31495,-1.73548,-0.0299419,21.99250031,187.33453,0.0042288,-3276.5909,0.0068516,-427.97662,0.0079627,-79.476241,0.0030209,-19.653143,0.0015029,-86.569806,0.00089044,,-12.66547,-2876.5909,-1227.97662,3127.756735962654,-259.4760889605043,-119.65318585756798,-176.5700164591497,335.8894108787737,-0.05493311036789095
20201100000000.0,0.2,-0.4,0.8,3.14159,1.5708,1.39626,-1.26715,-0.160033,-2.04951,-0.93207,-2.04972,-0.000897233,21.99250031,182.56949,0.016168,-3276.4194,0.0099218,-426.07318,0.0060301,-90.010431,0.0015844,-10.081031,0.00091705,-90.273869,0.0056864,,-17.430509999999998,-2876.4194,-1226.0731799999999,3126.875090260328,-270.0102789605043,-100.08124145914971,-170.27367410293633,334.53688844258556,-0.05493311036789095
20201100000000.0,0.2,-0.4,0.8,3.14159,1.5708,1.39626,-1.26719,-2.09933,2.04939,-3.09145,-2.04962,-0.000693623,21.99250031,184.54259,0.01108,-3277.735,0.016715,-425.65455,0.0065234,-90.130753,0.0040347,-10.01364,0.0018033,-90.170336,0.0053047,,-15.45741000000001,-2877.735,-1225.65455,3127.9109222745797,-270.1306009605043,-100.01385045914971,-170.17014110293633,334.56118839749126,-0.05493311036789095
20201100000000.0,0.2,-0.4,0.8,3.14159,1.5708,1.74533,-1.56451,-0.231918,-2.09504,-0.814583,-1.40343,-0.000873391,21.99250031,187.92969,0.0043921,-3274.5074,0.0038382,-426.15184,0.010535,-90.113978,0.002918,-30.082529,0.0015637,-90.382804,0.0018869,,-12.070310000000006,-2874.5074,-1226.15184,3125.1218887866826,-270.1138259605043,-120.0827394591497,-190.38284685756798,351.6062736479937,-0.05493311036789095
20201100000000.0,0.2,-0.4,0.8,3.14159,1.5708,1.74533,-1.56452,-2.21094,2.09497,-3.02547,-1.40353,-0.000765626,21.99250031,189.14129,0.017732,-3275.5603,0.010898,-425.8229,0.011292,-90.231471,0.0024815,-30.028566,0.0042546,-90.248759,0.0068309,,-10.858710000000002,-2875.5603,-1225.8229000000001,3125.9569307147153,-270.23131896050427,-120.02877645914971,-190.24880185756797,351.60557380913986,-0.05493311036789095
20201100000000.0,0.1,-0.4,0.8,2.96706,1.5708,1.5708,-2.14166,-0.327597,-2.13346,-0.680507,-0.826249,-0.000801388,21.99250031,282.49153,0.0050476,-3239.5791,0.0028001,-426.10878,0.0076175,-90.239788,0.0023742,-30.029164,0.00092713,-90.433248,0.0016601,,182.49153,-2839.5791,-1226.10878,3098.363336355444,-260.2398035620861,-120.02937445914972,-180.43345845914973,338.6562254301811,-0.05493311036789095
20201100000000.0,0.1,-0.4,0.8,2.96706,1.5708,1.5708,-2.14141,-2.3396,2.13343,-2.93517,-0.826489,-0.000873391,21.99250031,282.59995,0.010285,-3242.1759,0.011621,-424.89503,0.0060678,-90.09958,0.0018054,-30.000344,0.0014983,-90.235664,0.0050629,,182.59994999999998,-2842.1759,-1224.8950300000001,3100.27005643049,-260.09959556208605,-120.00055445914971,-180.23587445914973,338.43301128010324,-0.05493311036789095
20201100000000.0,0.1,-0.4,0.8,3.14159,1.39626,1.5708,-1.92483,-0.374089,-2.06381,-0.517798,-1.2232,-0.0648268,21.99250031,279.85276,0.0059395,-3240.5349,0.027226,-423.16697,0.016545,-100.77649,0.0040176,-19.646891,0.0012082,-94.016687,0.0021079,,179.85276,-2840.5349,-1223.16697,3097.9223634391824,-280.7763379605043,-99.64669610293632,-184.01689745914973,350.18143090865556,-0.05493311036789095
20201100000000.0,0.1,-0.4,0.8,3.14159,1.39626,1.5708,-1.92484,-2.32594,2.06381,-2.69361,-1.22319,-0.0648621,21.99250031,280.42409,0.0075564,-3242.8576,0.019723,-422.71409,0.0075408,-100.74885,0.0015791,-19.649967,0.00054838,-93.835637,0.0022037,,180.42408999999998,-2842.8576,-1222.71409,3099.906761826009,-280.7486979605043,-99.64977210293632,-183.8358474591497,350.0650329548916,-0.05493311036789095
20201100000000.0,0.1,-0.4,0.8,3.14159,1.74533,1.5708,-1.92483,-0.224108,-2.17239,-0.930859,-1.22318,0.0631996,21.99250031,279.75084,0.0044509,-3240.6014,0.017545,-428.73365,0.0075608,-79.490413,0.0011374,-19.763772,0.00098392,-86.73284,0.0017591,,179.75083999999998,-2840.6014,-1228.7336500000001,3100.1795207382734,-259.4902609605043,-119.76381485756798,-176.7330504591497,336.025502019095,-0.05493311036789095
20201100000000.0,0.1,-0.4,0.8,3.14159,1.74533,1.5708,-1.92482,-2.26946,2.17241,-3.23016,-1.22316,0.0632235,21.99250031,280.57982,0.0074243,-3242.4535,0.0042536,-427.7206,0.008102,-79.480164,0.0024766,-19.674247,0.0017675,-86.561226,0.0037327,,180.57981999999998,-2842.4535,-1227.7206,3101.523632461607,-259.48001196050427,-119.67428985756797,-176.56143645914972,335.8954496632174,-0.05493311036789095
20201100000000.0,0.1,-0.4,0.8,3.14159,1.5708,1.39626,-1.72182,-0.263411,-2.11001,-0.768271,-1.5951,-0.00082523,21.99250031,276.9625,0.0018097,-3241.6152,0.0066185,-425.88017,0.0031316,-90.048767,0.0026816,-10.041719,0.00069391,-90.31799,0.0032723,,176.96249999999998,-2841.6152,-1225.88017,3099.8185208938476,-270.0486149605043,-100.04192945914971,-170.31779510293632,334.5785310218245,-0.05493311036789095
20201100000000.0,0.1,-0.4,0.8,3.14159,1.5708,1.39626,-1.72177,-2.2553,2.10998,-2.99601,-1.59511,-0.000849072,21.99250031,278.05707,0.0033726,-3243.2252,0.010938,-425.42766,0.0097634,-90.124046,0.0037589,-9.9970581,0.0017161,-90.159481,0.003866,,178.05707,-2843.2252,-1225.42766,3101.178293485413,-270.1238939605043,-99.99726855914972,-170.15928610293633,334.5452950718892,-0.05493311036789095
20201100000000.0,0.1,-0.4,0.8,3.14159,1.5708,1.74533,-2.14162,-0.327657,-2.13346,-0.680531,-0.826249,-0.000789467,21.99250031,282.49448,0.011534,-3239.5794,0.0083711,-426.10735,0.0077148,-90.239717,0.0026898,-30.028006,0.00071255,-90.431674,0.0016734,,182.49448,-2839.5794,-1226.10735,3098.3632191624747,-270.2395649605043,-120.02821645914972,-190.43171685756798,351.7107248886904,-0.05493311036789095
20201100000000.0,0.1,-0.4,0.8,3.14159,1.5708,1.74533,-2.14141,-2.33961,2.13343,-2.93517,-0.826465,-0.000909154,21.99250031,282.59798,0.0080641,-3242.1787,0.015706,-424.9161,0.010559,-90.095354,0.0038193,-30.001986,0.0016481,-90.233303,0.0052668,,182.59798,-2842.1787,-1224.9161,3100.280831968772,-270.0952019605043,-120.00219645914972,-190.233345857568,351.4835289928549,-0.05493311036789095
20201100000000.0,2.78e-17,-0.4,0.8,2.96706,1.5708,1.5708,-2.66947,-0.345474,-2.13866,-0.657355,-0.298163,-0.000849072,21.99250031,377.31426,0.0055279,-3205.2125,0.0041293,-425.9934,0.005925,-90.296126,0.0012152,-29.948112,0.0011114,-90.420636,0.0032999,,377.31426,-2805.2125,-1225.9934,3084.5815012411585,-260.29614156208606,-119.94832245914971,-180.42084645914971,338.6640860940377,-0.05493311036789095
20201100000000.0,2.78e-17,-0.4,0.8,2.96706,1.5708,1.5708,-2.6695,-2.36216,2.13865,-2.91793,-0.298247,-0.000837151,21.99250031,375.96231,0.0055776,-3207.5893,0.0059904,-424.58388,0.0062605,-90.096339,0.0049486,-29.919322,0.0035485,-90.28153,0.003525,,375.96231,-2807.5893,-1224.5838800000001,3086.0186349357778,-260.09635456208605,-119.9195324591497,-180.28174045914972,338.42623105292483,-0.05493311036789095
20201100000000.0,2.78e-17,-0.4,0.8,3.14159,1.39626,1.5708,-2.51785,-0.44928,-2.07541,-0.323901,-0.645366,-0.237267,21.99250031,374.26035,0.017617,-3206.4431,0.021013,-423.03222,0.0074447,-100.8421,0.0027958,-19.638342,0.0050124,-94.045531,0.0027487,,374.26035,-2806.4431,-1223.03222,3084.153286443114,-280.8419479605043,-99.63814710293633,-184.04574145914972,350.24676307084576,-0.05493311036789095
20201100000000.0,2.78e-17,-0.4,0.8,3.14159,1.39626,1.5708,-2.51789,-2.41124,2.0754,-2.51301,-0.645294,-0.237219,21.99250031,373.55141,0.0079437,-3208.4258,0.0093514,-422.50734,0.0088074,-100.73517,0.0013001,-19.654753,0.0021436,-93.852685,0.001303,,373.55141,-2808.4258,-1222.50734,3085.663676808039,-280.7350179605043,-99.65455810293632,-183.8528954591497,350.0643775488863,-0.05493311036789095
20201100000000.0,2.78e-17,-0.4,0.8,3.14159,1.74533,1.5708,-2.51786,-0.26509,-2.18115,-0.98819,-0.645331,0.235674,21.99250031,374.24093,0.0042397,-3206.1998,0.0031125,-428.70493,0.0040959,-79.58145,0.0020844,-19.737589,0.0015146,-86.790258,0.0023481,,374.24093,-2806.1998,-1228.7049299999999,3086.1836296976253,-259.5812979605043,-119.73763185756798,-176.7904684591497,336.11667687236854,-0.05493311036789095
20201100000000.0,2.78e-17,-0.4,0.8,3.14159,1.74533,1.5708,-2.51784,-2.31765,2.18112,-3.29782,-0.645355,0.235722,21.99250031,373.40292,0.00738,-3208.7664,0.0064878,-427.07469,0.0039947,-79.387831,0.0023618,-19.680397,0.0018176,-86.687465,0.0015943,,373.40292,-2808.7664,-1227.07469,3087.767919593712,-259.38767896050433,-119.68043985756798,-176.68767545914972,335.89270658973294,-0.05493311036789095
20201100000000.0,2.78e-17,-0.4,0.8,3.14159,1.5708,1.39626,-2.326,-0.345174,-2.13852,-0.657679,-0.991221,-0.000849072,21.99250031,371.62871,0.030722,-3207.137,0.030304,-425.7425,0.016875,-90.127664,0.0036113,-9.9871023,0.0014749,-90.340213,0.0074092,,371.62871,-2807.137,-1225.7425,3085.5422069988795,-270.1275119605043,-99.98731275914972,-170.3400181029363,334.63720235215493,-0.05493311036789095
20201100000000.0,2.78e-17,-0.4,0.8,3.14159,1.5708,1.39626,-2.32597,-2.36173,2.13855,-2.91831,-0.991197,-0.000849072,21.99250031,371.23171,0.012596,-3209.796,0.0025593,-424.63043,0.0040322,-90.024207,0.0010503,-9.9580437,0.00081488,-90.176931,0.0045644,,371.23171,-2809.796,-1224.63043,3087.472466955375,-270.0240549605043,-99.95825415914972,-170.17673610293633,334.4619026772811,-0.05493311036789095
20201100000000.0,2.78e-17,-0.4,0.8,3.14159,1.5708,1.74533,-2.66948,-0.34545,-2.13866,-0.657403,-0.298139,-0.00082523,21.99250031,377.2855,0.0096168,-3205.2441,0.011893,-425.97418,0.0050257,-90.295738,0.0017636,-29.947473,0.0013325,-90.421803,0.0033758,,377.2855,-2805.2441,-1225.97418,3084.599082396565,-270.2955859605043,-119.94768345914972,-190.42184585756797,351.72095464551455,-0.05493311036789095
20201100000000.0,2.78e-17,-0.4,0.8,3.14159,1.5708,1.74533,-2.66947,-2.36213,2.13868,-2.91789,-0.298235,-0.000849072,21.99250031,375.97453,0.0085926,-3207.5858,0.0045645,-424.58882,0.0064558,-90.09779,0.0034982,-29.918759,0.0037086,-90.281368,0.0036323,,375.97453,-2807.5858,-1224.58882,3086.0188997540754,-270.0976379605043,-119.91896945914971,-190.28141085756798,351.4830132252976,-0.05493311036789095
20201100000000.0,-0.1,-0.4,0.8,2.96706,1.5708,1.5708,-2.90109,-0.26383,-2.11021,-0.767576,-0.0667236,-0.000801388,21.99250031,471.09436,0.0092759,-3171.3097,0.005339,-425.797,0.0021365,-90.307079,0.0013109,-30.008366,0.000846,-90.404627,0.0028144,,571.09436,-2771.3097,-1225.797,3083.647921950056,-260.30709456208604,-120.00857645914971,-180.40483745914972,338.68532191662604,-0.05493311036789095
20201100000000.0,-0.1,-0.4,0.8,2.96706,1.5708,1.5708,-2.90117,-2.256,2.11025,-2.99599,-0.0666035,-0.000490014,21.99250031,470.02148,0.0075269,-3172.7707,0.0014585,-424.54901,0.0034711,-90.111712,0.0018456,-29.973471,0.0039261,-90.226634,0.0043905,,570.02148,-2772.7707,-1224.54901,3084.266869181696,-260.11172756208606,-119.97368145914972,-180.22684445914973,338.42799902179627,-0.05493311036789095
20201100000000.0,-0.1,-0.4,0.8,3.14159,1.39626,1.5708,-2.84531,-0.446485,-2.04972,-0.103052,-0.343314,-0.517048,21.99250031,468.66252,0.019586,-3172.2631,0.011157,-422.83848,0.018258,-100.88928,0.0047132,-19.613192,0.0027285,-94.033279,0.0064351,,568.66252,-2772.2631,-1222.83848,3082.8807478465774,-280.8891279605043,-99.61299710293632,-184.0334894591497,350.2710045675393,-0.05493311036789095
20201100000000.0,-0.1,-0.4,0.8,3.14159,1.39626,1.5708,-2.84545,-2.38611,2.04972,-2.26292,-0.34329,-0.517108,21.99250031,467.14213,0.014442,-3174.0272,0.0048789,-422.27114,0.0064338,-100.734,0.0018599,-19.630042,0.0024514,-93.860667,0.0068465,,567.14213,-2774.0272,-1222.27114,3083.9623606065097,-280.7338479605043,-99.62984710293632,-183.86087745914972,350.06059773204197,-0.05493311036789095
20201100000000.0,-0.1,-0.4,0.8,3.14159,1.74533,1.5708,-2.84532,-0.191908,-2.12069,-1.37122,-0.343277,0.515482,21.99250031,468.41441,0.016456,-3172.3152,0.0056145,-428.43879,0.0073454,-79.540154,0.0020988,-19.708872,0.0027718,-86.731278,0.0064109,,568.41441,-2772.3152,-1228.43879,3085.1075135922497,-259.5400019605043,-119.70891485756798,-176.73148845914972,336.0435327855925,-0.05493311036789095
20201100000000.0,-0.1,-0.4,0.8,3.14159,1.74533,1.5708,-2.8454,-2.19315,2.12067,-3.61176,-0.343206,0.515673,21.99250031,467.59031,0.020088,-3173.7589,0.0068043,-426.99658,0.0054316,-79.400242,0.0020838,-19.624678,0.0018071,-86.555239,0.0032528,,567.59031,-2773.7589,-1226.99658,3085.6794717965768,-259.4000899605043,-119.62472085756798,-176.5554494591497,335.8129051205316,-0.05493311036789095
20201100000000.0,-0.1,-0.4,0.8,3.14159,1.5708,1.39626,-2.76538,-0.327753,-2.13354,-0.680423,-0.551446,-0.000873391,21.99250031,466.04831,0.022199,-3173.0488,0.0048706,-425.64755,0.0074855,-90.174029,0.002325,-9.9829249,0.0017057,-90.32402,0.0039713,,566.04831,-2773.0488,-1225.6475500000001,3084.2214987345346,-270.1738769605043,-99.98313535914971,-170.32382510293633,334.66514091821904,-0.05493311036789095
20201100000000.0,-0.1,-0.4,0.8,3.14159,1.5708,1.39626,-2.76551,-2.3399,2.13354,-2.93517,-0.551302,-0.000873391,21.99250031,464.56933,0.0067791,-3175.2005,0.0024596,-424.32133,0.0048031,-90.021886,0.0018963,-9.9637132,0.0019598,-90.204452,0.0047254,,564.56933,-2775.2005,-1224.32133,3085.3588223527368,-270.0217339605043,-99.96392365914971,-170.2042571029363,334.4757270420862,-0.05493311036789095
20201100000000.0,-0.1,-0.4,0.8,3.14159,1.5708,1.74533,-2.90109,-0.263855,-2.11019,-0.767599,-0.0666874,-0.000873391,21.99250031,471.08505,0.015337,-3171.308,0.0035577,-425.79815,0.002983,-90.305657,0.0026559,-30.013942,0.0040327,-90.406193,0.0037293,,571.08505,-2771.308,-1225.79815,3083.6451270762213,-270.3055049605043,-120.01415245914971,-190.406235857568,351.74280014790503,-0.05493311036789095
20201100000000.0,-0.1,-0.4,0.8,3.14159,1.5708,1.74533,-2.90117,-2.256,2.11026,-2.99599,-0.0665677,-0.000454251,21.99250031,469.99982,0.0048414,-3172.7798,0.0012589,-424.54531,0.004386,-90.111225,0.0029998,-29.976294,0.0026052,-90.223792,0.004128,,569.99982,-2772.7798,-1224.54531,3084.2695780899353,-270.1110729605043,-119.97650445914971,-190.22383485756797,351.4818070768821,-0.05493311036789095
20201100000000.0,-0.2,-0.4,0.8,2.96706,1.5708,1.5708,-2.98939,-0.1605,-2.04981,-0.931351,0.0214686,-0.000860993,21.99250031,564.91145,0.037665,-3137.285,0.016116,-425.48972,0.0039441,-90.30097,0.001617,-30.049579,0.00071721,-90.394307,0.011579,,764.91145,-2737.285,-1225.48972,3095.099958222962,-260.30098556208605,-120.04978945914971,-180.3945174591497,338.6897355443459,-0.05493311036789095
20201100000000.0,-0.2,-0.4,0.8,3.14159,1.39626,1.5708,-2.96624,-0.390646,-1.99394,0.0316956,-0.247561,-0.774138,21.99250031,562.73855,0.0077514,-3138.0076,0.0058743,-422.59578,0.0086237,-100.90064,0.0029358,-19.681695,0.0018597,-93.998108,0.0026193,,762.73855,-2738.0076,-1222.59578,3094.05820155143,-280.9004879605043,-99.68150010293633,-183.99831845914971,350.28112537648354,-0.05493311036789095
20201100000000.0,-0.2,-0.4,0.8,3.14159,1.39626,1.5708,-2.96635,-2.28106,1.99391,-2.06553,-0.247537,-0.774306,21.99250031,561.10458,0.010928,-3139.508,0.0028328,-421.81199,0.0085949,-100.73548,0.0038661,-19.676577,0.001678,-93.855721,0.0032303,,761.10458,-2739.508,-1221.81199,3094.6742643885373,-280.73532796050426,-99.67638210293632,-183.8559314591497,350.07243400035657,-0.05493311036789095
20201100000000.0,-0.2,-0.4,0.8,3.14159,1.74533,1.5708,-2.96624,-0.107164,-2.00404,-1.81901,-0.247525,0.772475,21.99250031,562.3978,0.0067979,-3138.1781,0.010072,-428.0174,0.0082432,-79.541995,0.002788,-19.74047,0.0028825,-86.699956,0.0085919,,762.3978,-2738.1781,-1228.0174,3096.271378201079,-259.5418429605043,-119.74051285756798,-176.70016645914973,336.03974094356715,-0.05493311036789095
20201100000000.0,-0.2,-0.4,0.8,3.14159,1.74533,1.5708,-2.96635,-2.00647,2.00405,-3.9282,-0.247333,0.772727,21.99250031,560.89981,0.0033207,-3139.6496,0.002423,-426.53818,0.0076903,-79.388668,0.0014954,-19.659634,0.0010277,-86.633424,0.0022006,,760.89981,-2739.6496,-1226.53818,3096.6182132506924,-259.38851596050426,-119.65967685756797,-176.63363445914973,335.8575312541002,-0.05493311036789095
20201100000000.0,-0.2,-0.4,0.8,3.14159,1.5708,1.39626,-2.93564,-0.232218,-2.09515,-0.814176,-0.38126,-0.000837151,21.99250031,559.74306,0.010412,-3139.0604,0.0074506,-425.41853,0.002888,-90.168543,0.0011948,-10.000438,0.00099886,-90.341137,0.0016223,,759.74306,-2739.0604,-1225.41853,3095.3694392969774,-270.1683909605043,-100.00064845914972,-170.3409421029363,334.6746565292243,-0.05493311036789095
20201100000000.0,-0.2,-0.4,0.8,3.14159,1.5708,1.39626,-2.93573,-2.21151,2.09522,-3.02531,-0.381175,-0.000837151,21.99250031,558.94505,0.014621,-3140.3446,0.0057275,-424.35024,0.0020174,-90.054898,0.0020096,-9.9475977,0.0022748,-90.143685,0.0035376,,758.94505,-2740.3446,-1224.35024,3095.887534432851,-270.0547459605043,-99.94780815914972,-170.1434901029363,334.4666461637374,-0.05493311036789095
20201100000000.0,-0.2,-0.4,0.8,3.14159,1.5708,1.74533,-2.98934,-0.160464,-2.04981,-0.931387,0.0214806,-0.000849072,21.99250031,564.90622,0.02325,-3137.2866,0.014526,-425.49156,0.0035947,-90.300582,0.0014811,-30.054849,0.00087369,-90.39564,0.0079213,,764.90622,-2737.2866,-1225.49156,3095.100809273501,-270.3004299605043,-120.05505945914972,-190.39568285756798,351.7471475213027,-0.05493311036789095
20201100000000.0,-0.3,-0.4,0.8,2.96706,1.5708,1.5708,-3.03173,-0.073478,-1.96011,-1.10798,0.0636838,-0.000765626,21.99250031,659.28214,0.014536,-3102.9678,0.0071651,-425.15394,0.0027696,-90.282906,0.0010882,-30.070572,0.00053338,-90.312849,0.0048076,,959.28214,-2702.9678,-1225.15394,3118.8554517093835,-260.282921562086,-120.07078245914971,-180.3130594591497,338.63991416955906,-0.05493311036789095
20201100000000.0,-0.3,-0.4,0.8,3.14159,1.39626,1.5708,-3.01969,-0.319091,-1.91864,0.060429,-0.213062,-0.954593,21.99250031,656.83792,0.0066862,-3103.8548,0.0054114,-422.41086,0.010263,-100.88525,0.002196,-19.704803,0.0025399,-93.948443,0.0021879,,956.83792,-2703.8548,-1222.41086,3117.796961843235,-280.8850979605043,-99.70460810293632,-183.9486534591497,350.24927443561756,-0.05493311036789095
20201100000000.0,-0.3,-0.4,0.8,3.14159,1.39626,1.5708,-3.01975,-2.1423,1.9186,-1.95366,-0.213038,-0.954665,21.99250031,654.99536,0.0066849,-3105.3324,0.0023764,-420.98238,0.0076809,-100.71089,0.0019908,-19.667831,0.0033565,-93.902452,0.0053446,,954.99536,-2705.3324,-1220.98238,3117.954057452058,-280.7107379605043,-99.66763610293631,-183.90266245914972,350.07477108789516,-0.05493311036789095
20201100000000.0,-0.3,-0.4,0.8,3.14159,1.74533,1.5708,-3.01971,-0.0544885,-1.86197,-2.18933,-0.213062,0.952846,21.99250031,656.5484,0.0056527,-3104.0624,0.010439,-428.01051,0.0071432,-79.534467,0.0014275,-19.748853,0.0021592,-86.670321,0.0014081,,956.5484,-2704.0624,-1228.01051,3120.0878380755207,-259.5343149605043,-119.74889585756797,-176.67053145914971,336.0213317442559,-0.05493311036789095
20201100000000.0,-0.3,-0.4,0.8,3.14159,1.74533,1.5708,-3.01978,-1.8265,1.86196,-4.14158,-0.212858,0.953062,21.99250031,655.21543,0.022231,-3105.227,0.0069683,-426.09992,0.0065909,-79.389701,0.0028382,-19.663125,0.0017893,-86.644315,0.00712,,955.21543,-2705.227,-1226.09992,3119.9376040336274,-259.38954896050427,-119.66316785756797,-176.64452545914972,335.8653007179076,-0.05493311036789095
20201100000000.0,-0.3,-0.4,0.8,3.14159,1.5708,1.39626,-3.00482,-0.131756,-2.02568,-0.984209,-0.312104,-0.000873391,21.99250031,654.06314,0.014307,-3104.7807,0.0077019,-425.13239,0.0022927,-90.191676,0.0019428,-9.9811687,0.0013496,-90.257735,0.0060447,,954.06314,-2704.7807,-1225.13239,3118.81780218503,-270.1915239605043,-99.98137915914971,-170.25754010293633,334.6451340757376,-0.05493311036789095
20201100000000.0,-0.3,-0.4,0.8,3.14159,1.5708,1.39626,-3.00491,-2.05014,2.02572,-3.1171,-0.31202,-0.000849072,21.99250031,652.49892,0.0068643,-3106.4098,0.0088366,-423.7804,0.0082712,-90.032264,0.0013934,-9.8964979,0.0028849,-90.181263,0.0018308,,952.49892,-2706.4098,-1223.7804,3119.222125075636,-270.03211196050427,-99.89670835914971,-170.1810681029363,334.452223451272,-0.05493311036789095
20201100000000.0,-0.3,-0.4,0.8,3.14159,1.5708,1.74533,-3.03173,-0.07349,-1.96014,-1.108,0.0636598,-0.000741784,21.99250031,659.2797,0.015471,-3102.9699,0.0084507,-425.16505,0.0021766,-90.283087,0.0016466,-30.072731,0.0011947,-90.311262,0.0061728,,959.2797,-2702.9699,-1225.16505,3118.8608854643717,-270.2829349605043,-120.07294145914972,-190.31130485756796,351.694141205262,-0.05493311036789095
20201100000000.0,-0.4,-0.4,0.8,2.96706,1.5708,1.5708,-3.056,-0.0130432,-1.84394,-1.28462,0.0881649,-0.000765626,22.11750031,753.13331,0.011131,-3068.8756,0.0035005,-425.18413,0.0017075,-90.269102,0.00090715,-30.063182,0.0015702,-90.343076,0.0011441,,1153.1333100000002,-2668.8756,-1225.18413,3154.946838111662,-260.2691175620861,-120.06339245914971,-180.3432864591497,338.6427804283353,0.07006688963210905
20201100000000.0,-0.4,-0.4,0.8,3.14159,1.39626,1.5708,-3.04874,-0.252997,-1.82495,0.0196871,-0.197932,-1.07634,22.11750031,750.47252,0.011301,-3069.8945,0.008503,-422.14544,0.0054763,-100.86161,0.0011506,-19.703283,0.0010369,-94.003722,0.00245,,1150.47252,-2669.8945,-1222.14544,3153.658690619229,-280.8614579605043,-99.70308810293632,-184.00393245914972,350.25892066497516,0.07006688963210905
20201100000000.0,-0.4,-0.4,0.8,3.14159,1.39626,1.5708,-3.04874,-1.99135,1.82497,-1.89209,-0.197932,-1.07602,22.11750031,748.90012,0.0026601,-3071.1651,0.0036875,-420.53216,0.0051385,-100.69726,0.00098968,-19.661066,0.0022489,-93.918666,0.0012462,,1148.90012,-2671.1651,-1220.53216,3153.536622712394,-280.6971079605043,-99.66087110293633,-183.91887645914971,350.07043400490574,0.07006688963210905
20201100000000.0,-0.4,-0.4,0.8,3.14159,1.74533,1.5708,-3.04871,-0.0306886,-1.70272,-2.49172,-0.197896,1.07479,22.11750031,750.5243,0.010752,-3069.9768,0.006731,-427.80075,0.0046577,-79.519753,0.0013143,-19.750089,0.0032266,-86.633361,0.0016949,,1150.5243,-2669.9768,-1227.8007499999999,3155.943117220159,-259.5196009605043,-119.75013185756798,-176.63357145914972,335.9909759636691,0.07006688963210905
20201100000000.0,-0.4,-0.4,0.8,3.14159,1.74533,1.5708,-3.04874,-1.65706,1.70277,-4.27047,-0.197788,1.07444,22.11750031,749.25257,0.0034974,-3070.981,0.0013676,-425.68522,0.0016631,-79.401068,0.0016834,-19.644993,0.0019544,-86.590433,0.0014988,,1149.25257,-2670.981,-1225.68522,3155.5071273155218,-259.4009159605043,-119.64503585756798,-176.5906434591497,335.839284723845,0.07006688963210905
20201100000000.0,-0.4,-0.4,0.8,3.14159,1.5708,1.39626,-3.04023,-0.0522569,-1.92778,-1.1615,-0.276885,-0.000813309,22.11750031,748.34527,0.017225,-3070.5236,0.0043948,-424.99604,0.0016698,-90.186098,0.0012823,-9.9891987,0.00082551,-90.234845,0.0037307,,1148.34527,-2670.5236,-1224.99604,3154.521905979417,-270.1859459605043,-99.98940915914972,-170.2346501029363,334.6313844131144,0.07006688963210905
20201100000000.0,-0.4,-0.4,0.8,3.14159,1.5708,1.39626,-3.04023,-1.88372,1.92782,-3.1856,-0.276729,-0.000897233,22.11750031,746.96401,0.0223,-3071.9756,0.0063194,-423.09724,0.011338,-90.033866,0.0019635,-9.9015998,0.0033704,-90.180105,0.0036869,,1146.9640100000001,-2671.9756,-1223.09724,3154.512150194743,-270.0337139605043,-99.90181025914971,-170.17991010293633,334.454451564039,0.07006688963210905
20201100000000.0,-0.4,-0.4,0.8,3.14159,1.5708,1.74533,-3.056,-0.0130671,-1.84389,-1.2846,0.0881769,-0.000741784,22.11750031,753.12456,0.0098796,-3068.8835,0.0042661,-425.17053,0.0053124,-90.269745,0.0012086,-30.060883,0.0014948,-90.345065,0.0024853,,1153.12456,-2668.8835,-1225.1705299999999,3154.9450415225815,-270.26959296050427,-120.06109345914972,-190.345107857568,351.6981363711678,0.07006688963210905
20201100000000.0,0.4,-0.5,0.8,2.96706,1.5708,1.5708,-1.04412,-0.0160177,-1.85173,-1.27404,-1.92385,-0.000765626,22.11750031,-34.561964,0.015067,-3249.0378,0.021764,-427.05573,0.0044385,-90.134406,0.0019001,-30.105688,0.0013817,-90.334243,0.0040259,,-434.561964,-2749.0378,-1227.05573,3041.6638030706504,-260.13442156208606,-120.10589845914971,-180.3344534591497,338.54964071836037,0.07006688963210905
20201100000000.0,0.4,-0.5,0.8,2.96706,1.5708,1.5708,-1.04414,-1.77865,1.85168,-3.21467,-1.92386,-0.000789467,22.11750031,-32.572034,0.006404,-3249.5594,0.0085689,-425.7878,0.0049877,-90.226011,0.0015659,-30.00563,0.0014207,-90.270407,0.0011334,,-432.57203400000003,-2749.5594,-1225.7878,3041.340360656153,-260.2260265620861,-120.00584045914971,-180.27061745914972,338.55056071981556,0.07006688963210905
20201100000000.0,0.4,-0.5,0.8,3.14159,1.39626,1.5708,-0.979682,-0.0738981,-1.78153,-1.07684,-2.15267,0.11521,22.11750031,-36.954783,0.012593,-3250.2253,0.027065,-424.13916,0.0090689,-100.71393,0.0013101,-19.703385,0.001541,-93.957682,0.0036022,,-436.954783,-2750.2253,-1224.13916,3041.904891049714,-280.71377796050433,-99.70319010293632,-183.95789245914972,350.1163484494457,0.07006688963210905
20201100000000.0,0.4,-0.5,0.8,3.14159,1.39626,1.5708,-0.97961,-1.77266,1.78149,-2.94115,-2.15267,0.115245,22.11750031,-35.1558,0.014418,-3250.6279,0.022893,-422.96509,0.0050235,-100.7807,0.0013858,-19.635741,0.0010942,-93.850702,0.003076,,-435.1558,-2750.6279,-1222.96509,3041.53875955753,-280.7805479605043,-99.63554610293632,-183.8509124591497,350.09443893368734,0.07006688963210905
20201100000000.0,0.4,-0.5,0.8,3.14159,1.74533,1.5708,-0.979694,0.0595399,-1.8294,-1.58097,-2.15269,-0.116789,22.11750031,-36.986849,0.015368,-3250.0538,0.020213,-429.90464,0.0047741,-79.485144,0.0014649,-19.806577,0.0010642,-86.708485,0.00218,,-436.986849,-2750.0538,-1229.90464,3044.079307867474,-259.4849919605043,-119.80661985756798,-176.7086954591497,336.0238834745431,0.07006688963210905
20201100000000.0,0.4,-0.5,0.8,3.14159,1.74533,1.5708,-0.979622,-1.68288,1.82941,-3.49741,-2.15269,-0.116777,22.11750031,-35.069557,0.0058706,-3250.4539,0.022603,-428.49461,0.011459,-79.553288,0.0029262,-19.689082,0.0014629,-86.636986,0.0027038,,-435.06955700000003,-2750.4539,-1228.49461,3043.5967509268435,-259.5531359605043,-119.68912485756798,-176.63719645914972,335.9970478576423,0.07006688963210905
20201100000000.0,0.4,-0.5,0.8,3.14159,1.5708,1.39626,-0.921467,0.00804484,-1.76949,-1.38023,-2.39529,-0.00082523,22.11750031,-39.710611,0.0064078,-3251.1579,0.017197,-427.12822,0.0038011,-90.02602,0.0032291,-10.080064,0.001297,-90.231739,0.0060568,,-439.710611,-2751.1579,-1227.12822,3044.34867918883,-270.0258679605043,-100.0802744591497,-170.2315441029363,334.5277407201268,0.07006688963210905
20201100000000.0,0.4,-0.5,0.8,3.14159,1.5708,1.39626,-0.921443,-1.67966,1.76947,-3.23128,-2.39526,-0.000717942,22.11750031,-37.670112,0.016146,-3251.562,0.0098785,-425.64467,0.011473,-90.137525,0.0034208,-9.9751949,0.0033968,-90.182376,0.0049958,,-437.670112,-2751.562,-1225.6446700000001,3043.8221734985605,-270.1373729605043,-99.97540535914972,-170.18218110293634,334.5612899181278,0.07006688963210905
20201100000000.0,0.4,-0.5,0.8,3.14159,1.5708,1.74533,-1.04415,-0.0160177,-1.85169,-1.27403,-1.92383,-0.000860993,22.11750031,-34.568082,0.013195,-3249.025,0.023877,-427.05824,0.004171,-90.137806,0.001426,-30.10508,0.00083638,-90.342072,0.0023101,,-434.568082,-2749.025,-1227.05824,3041.6541211765116,-270.1376539605043,-120.10529045914971,-190.342114857568,351.61022961798693,0.07006688963210905
20201100000000.0,0.4,-0.5,0.8,3.14159,1.5708,1.74533,-1.04409,-1.77863,1.85171,-3.21462,-1.92387,-0.000765626,22.11750031,-32.572737,0.0057133,-3249.5661,0.0092856,-425.78681,0.0081644,-90.220181,0.0024385,-30.004779,0.0028751,-90.26389,0.0025925,,-432.572737,-2749.5661,-1225.78681,3041.346118848504,-270.2200289605043,-120.00498945914971,-190.26393285756797,351.59696485171133,0.07006688963210905
20201100000000.0,0.3,-0.5,0.8,2.96706,1.5708,1.5708,-1.27025,-0.0641816,-1.94678,-1.13066,-1.69759,-0.00082523,22.11750031,59.35727,0.0067128,-3214.5884,0.0058568,-426.68999,0.0036894,-90.18454,0.0016443,-30.078187,0.00231,-90.386516,0.0029654,,-240.64273,-2714.5884,-1226.68999,2988.589539646188,-260.1845555620861,-120.07839745914971,-180.3867264591497,338.6062544786287,0.07006688963210905
20201100000000.0,0.3,-0.5,0.8,2.96706,1.5708,1.5708,-1.27026,-1.91267,1.94679,-3.17575,-1.69761,-0.000777547,22.11750031,61.388532,0.013589,-3215.8855,0.007088,-425.37493,0.010878,-90.190962,0.00201,-29.992153,0.0029211,-90.242593,0.004257,,-238.611468,-2715.8855,-1225.37493,2989.0656066476477,-260.19097756208606,-119.99236345914971,-180.2428034591497,338.50403290365733,0.07006688963210905
20201100000000.0,0.3,-0.5,0.8,3.14159,1.39626,1.5708,-1.18369,-0.119208,-1.87736,-0.956778,-1.95262,0.0698175,22.11750031,56.935423,0.0070217,-3215.5789,0.0079109,-423.69422,0.0054966,-100.73622,0.0014702,-19.718177,0.0014069,-93.942342,0.0031052,,-243.06457699999999,-2715.5789,-1223.6942199999999,2988.4572432575987,-280.73606796050433,-99.71798210293632,-183.9425524591497,350.13037345222347,0.07006688963210905
20201100000000.0,0.3,-0.5,0.8,3.14159,1.39626,1.5708,-1.18369,-1.90532,1.8774,-2.92541,-1.95261,0.0698414,22.11750031,58.920104,0.0056901,-3216.6559,0.0054537,-422.54367,0.017985,-100.76358,0.004201,-19.665118,0.0042666,-93.800722,0.0039232,,-241.079896,-2716.6559,-1222.54367,2988.8044131922134,-280.7634279605043,-99.66492310293631,-183.8009324591497,350.0628260042766,0.07006688963210905
20201100000000.0,0.3,-0.5,0.8,3.14159,1.74533,1.5708,-1.18372,0.0213836,-1.94423,-1.40692,-1.95266,-0.0714443,22.11750031,56.744115,0.0022881,-3215.2652,0.0025708,-429.58716,0.0036171,-79.466802,0.0020457,-19.822355,0.0022319,-86.710807,0.0025702,,-243.255885,-2715.2652,-1229.58716,2990.6058108609095,-259.4666499605043,-119.82239785756798,-176.71101745914973,336.0165667962103,0.07006688963210905
20201100000000.0,0.3,-0.5,0.8,3.14159,1.74533,1.5708,-1.18361,-1.82478,1.94424,-3.44921,-1.95269,-0.0713967,22.11750031,58.892732,0.0058846,-3216.3993,0.0046191,-428.08341,0.0095509,-79.523654,0.0021615,-19.71017,0.0013886,-86.617055,0.0012709,,-241.107268,-2716.3993,-1228.08341,2990.8438163234373,-259.5235019605043,-119.71021285756798,-176.6172654591497,335.9711916080244,0.07006688963210905
20201100000000.0,0.3,-0.5,0.8,3.14159,1.5708,1.39626,-1.10545,-0.0289853,-1.88317,-1.22956,-2.21132,-0.000873391,22.11750031,54.157168,0.0055114,-3216.421,0.0056272,-426.67439,0.0021503,-90.04863,0.0025888,-10.077659,0.00085297,-90.27611,0.0053705,,-245.842832,-2716.421,-1226.6743900000001,2990.6707953849836,-270.04847796050433,-100.07786945914971,-170.27591510293632,334.5678521143506,0.07006688963210905
20201100000000.0,0.3,-0.5,0.8,3.14159,1.5708,1.39626,-1.10549,-1.8202,1.88313,-3.20449,-2.21129,-0.000669781,21.99250031,56.320204,0.0098514,-3217.4383,0.010226,-425.34125,0.0072971,-90.130008,0.0023631,-9.9900899,0.0013248,-90.17559,0.0035505,,-243.679796,-2717.4383,-1225.34125,2990.8714342540793,-270.1298559605043,-99.99030035914971,-170.1753951029363,334.5562200073349,-0.05493311036789095
20201100000000.0,0.3,-0.5,0.8,3.14159,1.5708,1.74533,-1.27029,-0.0641816,-1.94681,-1.13066,-1.6976,-0.000873391,21.99250031,59.362087,0.0089564,-3214.5914,0.0087977,-426.68852,0.0033051,-90.182489,0.0011342,-30.07695,0.0010661,-90.386111,0.0031718,,-240.637913,-2714.5914,-1226.68852,2988.591273363881,-270.1823369605043,-120.07716045914971,-190.386153857568,351.65879379030093,-0.05493311036789095
20201100000000.0,0.3,-0.5,0.8,3.14159,1.5708,1.74533,-1.27026,-1.91273,1.94677,-3.17567,-1.6976,-0.000813309,21.99250031,61.389165,0.012709,-3215.8927,0.0059681,-425.3341,0.0046666,-90.190471,0.0017222,-29.993691,0.0012159,-90.24327,0.0036774,,-238.610835,-2715.8927,-1225.3341,2989.05535999511,-270.1903189605043,-119.99390145914971,-190.24331285756796,351.55918837997916,-0.05493311036789095
20201100000000.0,0.2,-0.5,0.8,2.96706,1.5708,1.5708,-1.56655,-0.119208,-2.01382,-1.0086,-1.4014,-0.000873391,21.99250031,153.50821,0.0052569,-3180.3249,0.0082215,-426.35,0.0028866,-90.220887,0.0012834,-30.092,0.0010074,-90.41007,0.0023753,,-46.49179000000001,-2680.3249,-1226.35,2947.9208569087155,-260.22090256208605,-120.09221045914971,-180.4102804591497,338.6516299068121,-0.05493311036789095
20201100000000.0,0.2,-0.5,0.8,2.96706,1.5708,1.5708,-1.56654,-2.02718,2.0138,-3.128,-1.40144,-0.000837151,21.99250031,155.07005,0.01044,-3182.2601,0.0098297,-425.32858,0.0069367,-90.171966,0.0024482,-30.026304,0.0027734,-90.224639,0.0046559,,-44.92994999999999,-2682.2601,-1225.3285799999999,2949.2317768232165,-260.17198156208605,-120.02651445914971,-180.2248494591497,338.49198000207934,-0.05493311036789095
20201100000000.0,0.2,-0.5,0.8,3.14159,1.39626,1.5708,-1.45508,-0.174585,-1.94782,-0.843471,-1.68562,0.0193392,21.99250031,151.27109,0.003326,-3181.0845,0.0027188,-423.13893,0.0011982,-100.67773,0.0011477,-19.668491,0.00089503,-93.925774,0.0021463,,-48.72891000000001,-2681.0845,-1223.13893,2947.3135979891217,-280.6775779605043,-99.66829610293632,-183.92598445914973,350.060623002795,-0.05493311036789095
20201100000000.0,0.2,-0.5,0.8,3.14159,1.39626,1.5708,-1.45508,-2.02386,1.94782,-2.88965,-1.68555,0.0193512,22.11750031,152.98967,0.0043173,-3182.872,0.0051787,-422.13593,0.0086788,-100.73246,0.0022111,-19.625268,0.0013966,-93.783972,0.0015443,,-47.01033000000001,-2682.872,-1222.13593,2948.495950634437,-280.7323079605043,-99.62507310293631,-183.78418245914972,350.0177276164378,0.07006688963210905
20201100000000.0,0.2,-0.5,0.8,3.14159,1.74533,1.5708,-1.45504,-0.030125,-2.02901,-1.25814,-1.68561,-0.0209783,22.11750031,151.15978,0.0025929,-3180.8297,0.0016035,-429.21574,0.0016977,-79.474673,0.00090522,-19.77093,0.00070399,-86.707008,0.00086896,,-48.84021999999999,-2680.8297,-1229.21574,2949.610920605544,-259.47452096050426,-119.77097285756798,-176.70721845914971,336.00231252552584,0.07006688963210905
20201100000000.0,0.2,-0.5,0.8,3.14159,1.74533,1.5708,-1.45504,-1.95156,2.02904,-3.39483,-1.68556,-0.0209664,22.11750031,152.95034,0.0029868,-3182.4762,0.003145,-428.23326,0.005798,-79.528669,0.0011992,-19.669874,0.0018362,-86.594423,0.0018031,,-47.04965999999999,-2682.4762,-1228.23326,2950.6692757818155,-259.5285169605043,-119.66991685756798,-176.59463345914972,335.9488125935072,0.07006688963210905
20201100000000.0,0.2,-0.5,0.8,3.14159,1.5708,1.39626,-1.35203,-0.0807236,-1.97002,-1.09086,-1.96487,-0.000837151,22.11750031,148.02579,0.0056844,-3182.1459,0.0030857,-426.2194,0.0027122,-90.070725,0.001806,-10.117522,0.0010968,-90.302237,0.0068433,,-51.97421,-2682.1459,-1226.2194,2949.613866988066,-270.0705729605043,-100.1177324591497,-170.30204210293633,334.6109087827342,0.07006688963210905
20201100000000.0,0.2,-0.5,0.8,3.14159,1.5708,1.39626,-1.35205,-1.9499,1.96997,-3.1616,-1.96476,-0.000765626,22.11750031,149.99477,0.018839,-3183.7178,0.0044462,-425.21101,0.021316,-90.123272,0.0012218,-10.037986,0.0014339,-90.172636,0.0046039,,-50.00523000000001,-2683.7178,-1225.21101,2950.590410763482,-270.1231199605043,-100.03819645914972,-170.17244110293632,334.56359694223875,0.07006688963210905
20201100000000.0,0.2,-0.5,0.8,3.14159,1.5708,1.74533,-1.56658,-0.119196,-2.01377,-1.0086,-1.4014,-0.000897233,22.11750031,153.49174,0.012697,-3180.2966,0.0089831,-426.33917,0.005113,-90.228467,0.0016556,-30.099511,0.000834,-90.411401,0.0047025,,-46.50826000000001,-2680.2966,-1226.33917,2947.890880289852,-270.2283149605043,-120.09972145914972,-190.41144385756797,351.71551466047475,0.07006688963210905
20201100000000.0,0.2,-0.5,0.8,3.14159,1.5708,1.74533,-1.56657,-2.02716,2.01377,-3.12805,-1.40143,-0.00082523,22.11750031,155.08489,0.0070927,-3182.2652,0.011616,-425.30146,0.018166,-90.167813,0.0036449,-30.02375,0.0040349,-90.224066,0.0033987,,-44.91511,-2682.2652,-1225.3014600000001,2949.2249215879556,-270.1676609605043,-120.02396045914972,-190.22410885756796,351.5416443379438,0.07006688963210905
20201100000000.0,0.1,-0.5,0.8,2.96706,1.5708,1.5708,-1.9175,-0.161316,-2.05048,-0.929732,-1.05038,-0.000837151,22.11750031,248.24869,0.031677,-3145.7343,0.018368,-426.02633,0.0062361,-90.19719,0.0012798,-30.006511,0.00091223,-90.410846,0.010971,,148.24869,-2645.7343,-1226.02633,2919.7650970816944,-260.1972055620861,-120.00672145914972,-180.41105645914973,338.60352666562545,0.07006688963210905
20201100000000.0,0.1,-0.5,0.8,2.96706,1.5708,1.5708,-1.91764,-2.1017,2.05057,-3.09031,-1.05036,-0.00082523,22.11750031,249.04103,0.027714,-3147.7513,0.016336,-425.1403,0.009896,-90.156248,0.0032645,-29.945953,0.0020008,-90.218429,0.0092073,,149.04103,-2647.7513,-1225.1403,2921.261530565047,-260.15626356208605,-119.94616345914972,-180.2186394591497,338.44810770288206,0.07006688963210905
20201100000000.0,0.1,-0.5,0.8,3.14159,1.39626,1.5708,-1.79179,-0.225355,-1.99135,-0.746098,-1.35404,-0.0397547,22.11750031,245.447,0.0052767,-3146.5593,0.0041021,-423.09668,0.0038542,-100.77048,0.00086431,-19.653475,0.0010257,-93.999769,0.0020351,,145.447,-2646.5593,-1223.09668,2919.1431014687364,-280.7703279605043,-99.65328010293632,-183.9999794591497,350.1695956808514,0.07006688963210905
20201100000000.0,0.1,-0.5,0.8,3.14159,1.39626,1.5708,-1.79183,-2.11349,1.99135,-2.84059,-1.35411,-0.0398029,22.11750031,246.44995,0.0060687,-3148.7168,0.0020433,-422.30978,0.0060713,-100.76805,0.0013203,-19.624876,0.001017,-93.826028,0.0027586,,146.44995,-2648.7168,-1222.30978,2920.8200000583556,-280.7678979605043,-99.62468110293632,-183.8262384591497,350.0682441411418,0.07006688963210905
20201100000000.0,0.1,-0.5,0.8,3.14159,1.74533,1.5708,-1.79183,-0.0775331,-2.08027,-1.16258,-1.35406,0.0381522,22.11750031,245.42387,0.0045246,-3146.7718,0.01248,-428.88403,0.0047555,-79.485672,0.0013986,-19.770659,0.0012124,-86.691833,0.0025393,,145.42387,-2646.7718,-1228.88403,2921.764025795043,-259.4855199605043,-119.77070185756797,-176.69204345914972,336.0027296234329,0.07006688963210905
20201100000000.0,0.1,-0.5,0.8,3.14159,1.74533,1.5708,-1.79188,-2.0439,2.08028,-3.35677,-1.35398,0.0381402,22.11750031,246.60191,0.0028852,-3148.9336,0.0027468,-427.53828,0.0046178,-79.446976,0.0021948,-19.658328,0.0024508,-86.541057,0.0029802,,146.60191,-2648.9336,-1227.53828,2923.215962957572,-259.4468239605043,-119.65837085756797,-176.5412674591497,335.85353845919684,0.07006688963210905
20201100000000.0,0.1,-0.5,0.8,3.14159,1.5708,1.39626,-1.66855,-0.134323,-2.02803,-0.97915,-1.64837,-0.00082523,22.11750031,242.6737,0.0051276,-3147.5939,0.008046,-425.98646,0.0037889,-90.095514,0.0011727,-10.047777,0.000928,-90.31634,0.0016909,,142.6737,-2647.5939,-1225.98646,2921.1559431314568,-270.0953619605043,-100.04798745914971,-170.31614510293633,334.6172345082161,0.07006688963210905
20201100000000.0,0.1,-0.5,0.8,3.14159,1.5708,1.39626,-1.66861,-2.05492,2.02805,-3.11457,-1.64829,-0.000860993,22.11750031,244.06802,0.005769,-3149.7113,0.001829,-425.18768,0.0066549,-90.108729,0.0017149,-9.9800765,0.00073287,-90.160413,0.002097,,144.06802,-2649.7113,-1225.18768,2922.8086524708033,-270.1085769605043,-99.98028695914971,-170.1602181029363,334.5283260845058,0.07006688963210905
20201100000000.0,0.1,-0.5,0.8,3.14159,1.5708,1.74533,-1.91752,-0.161352,-2.05051,-0.929756,-1.05039,-0.000837151,22.11750031,248.25066,0.033369,-3145.7266,0.019901,-426.04317,0.0046542,-90.199153,0.0011585,-30.007391,0.00073216,-90.41259,0.012087,,148.25066,-2645.7266,-1226.04317,2919.7652910536567,-270.1990009605043,-120.00760145914971,-190.41263285756798,351.6621891528626,0.07006688963210905
20201100000000.0,0.1,-0.5,0.8,3.14159,1.5708,1.74533,-1.91763,-2.10168,2.05052,-3.09027,-1.05034,-0.000837151,22.11750031,249.05497,0.031608,-3147.7383,0.016769,-425.16042,0.0077004,-90.156046,0.0036143,-29.93764,0.0018465,-90.220847,0.014165,,149.05497,-2647.7383,-1225.16042,2921.2588971371856,-270.1558939605043,-119.93785045914971,-190.22088985756798,351.5014679237707,0.07006688963210905
20201100000000.0,2.78e-17,-0.5,0.8,2.96706,1.5708,1.5708,-2.25536,-0.167938,-2.05541,-0.918224,-0.712844,-0.000885312,22.11750031,342.3092,0.019806,-3111.5748,0.010419,-425.82883,0.00345,-90.233167,0.002118,-30.020763,0.00173,-90.42731,0.0085122,,342.3092,-2611.5748,-1225.82883,2905.1944590438084,-260.23318256208603,-120.02097345914972,-180.42752045914972,338.64499629480844,0.07006688963210905
20201100000000.0,2.78e-17,-0.5,0.8,2.96706,1.5708,1.5708,-2.25538,-2.11259,2.0554,-3.08456,-0.712796,-0.000860993,22.11750031,342.40552,0.019788,-3113.5645,0.0097702,-424.84445,0.015086,-90.141844,0.0013594,-29.958967,0.00082833,-90.219776,0.0069469,,342.40552,-2613.5645,-1224.84445,2906.579581309021,-260.14185956208604,-119.95917745914971,-180.2199864591497,338.4423656583673,0.07006688963210905
20201100000000.0,2.78e-17,-0.5,0.8,3.14159,1.39626,1.5708,-2.14429,-0.250945,-2.00701,-0.676792,-1.00813,-0.112373,22.11750031,339.6445,0.023432,-3112.284,0.015496,-422.91889,0.0058336,-100.81347,0.001264,-19.660667,0.0017885,-94.025356,0.0075226,,339.6445,-2612.284,-1222.91889,2904.2928045489975,-280.81331796050426,-99.66047210293632,-184.02556645914973,350.21955735563705,0.07006688963210905
20201100000000.0,2.78e-17,-0.5,0.8,3.14159,1.39626,1.5708,-2.14425,-2.15289,2.00697,-2.78873,-1.00818,-0.112421,22.11750031,339.88311,0.011686,-3114.3559,0.0066367,-422.35674,0.0070379,-100.77696,0.0016164,-19.633185,0.0019051,-93.831027,0.0024446,,339.88311,-2614.3559,-1222.35674,2905.9479176598315,-280.7768079605043,-99.63299010293632,-183.83123745914972,350.0803800145104,0.07006688963210905
20201100000000.0,2.78e-17,-0.5,0.8,3.14159,1.74533,1.5708,-2.14431,-0.095455,-2.09404,-1.15889,-1.00816,0.110745,22.11750031,339.46997,0.02467,-3112.6291,0.01084,-428.60287,0.004823,-79.506196,0.0013421,-19.771854,0.0018726,-86.746491,0.0080749,,339.46997,-2612.6291,-1228.60287,2906.98051023237,-259.5060439605043,-119.77189685756798,-176.74670145914973,336.04775048433356,0.07006688963210905
20201100000000.0,2.78e-17,-0.5,0.8,3.14159,1.74533,1.5708,-2.14434,-2.07375,2.09412,-3.36866,-1.00798,0.110722,22.11750031,339.86459,0.0046557,-3114.7719,0.0024972,-427.18036,0.0066974,-79.430753,0.0034535,-19.659948,0.0018891,-86.593504,0.0086728,,339.86459,-2614.7719,-1227.18036,2908.3520530594656,-259.4306009605043,-119.65999085756798,-176.5937144591497,335.86915623980923,0.07006688963210905
20201100000000.0,2.78e-17,-0.5,0.8,3.14159,1.5708,1.39626,-2.02469,-0.167842,-2.05535,-0.91838,-1.29235,-0.000873391,21.99250031,337.061,0.0088717,-3113.4052,0.0028911,-425.63001,0.0061423,-90.069459,0.0021885,-10.023349,0.0016592,-90.330035,0.0064441,,337.061,-2613.4052,-1225.63001,2906.1427663693057,-270.06930696050426,-100.02355945914971,-170.32984010293632,334.5958718192694,-0.05493311036789095
20201100000000.0,2.78e-17,-0.5,0.8,3.14159,1.5708,1.39626,-2.02463,-2.1123,2.05529,-3.08455,-1.29237,-0.000873391,21.99250031,337.6759,0.012895,-3115.4307,0.0057226,-424.96686,0.0057171,-90.095496,0.002181,-9.953511,0.0008228,-90.152003,0.0022143,,337.6759,-2615.4307,-1224.96686,2907.756277276615,-270.0953439605043,-99.95372145914972,-170.15180810293631,334.50542456494617,-0.05493311036789095
20201100000000.0,2.78e-17,-0.5,0.8,3.14159,1.5708,1.74533,-2.25534,-0.167962,-2.05536,-0.918212,-0.712868,-0.000789467,21.99250031,342.30359,0.0212,-3111.568,0.0095721,-425.82662,0.0056737,-90.234641,0.0027901,-30.021017,0.00094074,-90.42299,0.007859,,342.30359,-2611.568,-1225.82662,2905.1867528011885,-270.2344889605043,-120.02122745914971,-190.423032857568,351.6997377127544,-0.05493311036789095
20201100000000.0,2.78e-17,-0.5,0.8,3.14159,1.5708,1.74533,-2.25528,-2.11256,2.05539,-3.08442,-0.712891,-0.000932995,21.99250031,342.43025,0.013041,-3113.5497,0.0043018,-424.86096,0.015163,-90.145164,0.0038331,-29.955913,0.0018349,-90.217398,0.0074665,,342.43025,-2613.5497,-1224.86096,2906.5761441629693,-270.1450119605043,-119.95612345914971,-190.21744085756796,351.4974734601803,-0.05493311036789095
20201100000000.0,-0.1,-0.5,0.8,2.96706,1.5708,1.5708,-2.50968,-0.134587,-2.02829,-0.97873,-0.458026,-0.000741784,21.99250031,436.3508,0.0087163,-3077.2671,0.0028208,-425.68422,0.0044473,-90.286836,0.0016687,-30.066361,0.001147,-90.384838,0.0041691,,536.3507999999999,-2577.2671,-1225.68422,2903.838785566454,-260.28685156208604,-120.06657145914971,-180.38504845914971,338.6797785307949,-0.05493311036789095
20201100000000.0,-0.1,-0.5,0.8,2.96706,1.5708,1.5708,-2.50961,-2.05537,2.02838,-3.11443,-0.458195,-0.000932995,21.99250031,435.73734,0.0034815,-3079.4759,0.003137,-424.36323,0.001141,-90.118618,0.0029304,-29.996231,0.0017245,-90.23342,0.0032847,,535.73734,-2579.4759,-1224.36323,2905.129211433997,-260.1186335620861,-119.99644145914971,-180.2336304591497,338.44498967712804,-0.05493311036789095
20201100000000.0,-0.1,-0.5,0.8,3.14159,1.39626,1.5708,-2.4319,-0.239104,-1.99485,-0.643598,-0.728259,-0.19994,21.99250031,433.90509,0.02267,-3078.1185,0.018506,-422.69648,0.010413,-100.83426,0.0031234,-19.663193,0.0028287,-94.009264,0.0097341,,533.90509,-2578.1185,-1222.69648,2902.8841395023933,-280.8341079605043,-99.66299810293631,-184.00947445914971,350.2284912390346,-0.05493311036789095
20201100000000.0,-0.1,-0.5,0.8,3.14159,1.39626,1.5708,-2.43185,-2.13041,1.99484,-2.74208,-0.728224,-0.200095,21.99250031,433.45075,0.012758,-3080.2851,0.0033194,-421.65938,0.0041718,-100.71989,0.0019228,-19.636195,0.0013593,-93.830452,0.0040377,,533.45075,-2580.2851,-1221.65938,2904.288646243613,-280.7197379605043,-99.63600010293632,-183.83066245914972,350.03516431538185,-0.05493311036789095
20201100000000.0,-0.1,-0.5,0.8,3.14159,1.74533,1.5708,-2.43192,-0.0713065,-2.06739,-1.26684,-0.728296,0.198395,21.99250031,433.76473,0.02087,-3078.1864,0.0091738,-428.45783,0.0026506,-79.536357,0.0013386,-19.765851,0.0026058,-86.805399,0.0056028,,533.76473,-2578.1864,-1228.45783,2905.349985840818,-259.5362049605043,-119.76589385756797,-176.8056094591497,336.0998877611007,-0.05493311036789095
20201100000000.0,-0.1,-0.5,0.8,3.14159,1.74533,1.5708,-2.43192,-2.02638,2.06737,-3.44661,-0.728127,0.198371,21.99250031,433.41799,0.014725,-3080.3983,0.005086,-427.00211,0.011226,-79.446943,0.0025201,-19.662831,0.0022346,-86.653876,0.0046954,,533.4179899999999,-2580.3983,-1227.00211,2906.634534413121,-259.4467909605043,-119.66287385756797,-176.6540864591497,335.9144340189516,-0.05493311036789095
20201100000000.0,-0.1,-0.5,0.8,3.14159,1.5708,1.39626,-2.34214,-0.16146,-2.05058,-0.929576,-0.974944,-0.000885312,21.99250031,431.29292,0.019412,-3079.1343,0.0049369,-425.49493,0.0026859,-90.119283,0.001831,-10.001658,0.0010952,-90.330611,0.0045279,,531.29292,-2579.1343,-1225.49493,2904.4868269169892,-270.1191309605043,-100.00186845914972,-170.33041610293634,334.6298989271261,-0.05493311036789095
20201100000000.0,-0.1,-0.5,0.8,3.14159,1.5708,1.39626,-2.34212,-2.10179,2.05055,-3.09028,-0.974873,-0.000897233,21.99250031,431.17249,0.013711,-3081.3116,0.0039882,-424.55964,0.0074023,-90.067457,0.0029902,-9.9340762,0.0012176,-90.154777,0.0024978,,531.1724899999999,-2581.3116,-1224.55964,2906.0041469936496,-270.0673049605043,-99.9342866591497,-170.15458210293633,334.4783889421379,-0.05493311036789095
20201100000000.0,-0.1,-0.5,0.8,3.14159,1.5708,1.74533,-2.50968,-0.134599,-2.02831,-0.978766,-0.458014,-0.000813309,21.99250031,436.35411,0.0060119,-3077.2712,0.0019123,-425.66863,0.0038287,-90.285389,0.0014389,-30.066348,0.0015632,-90.389157,0.0040837,,536.35411,-2577.2712,-1225.6686300000001,2903.836455489429,-270.2852369605043,-120.06655845914972,-190.38919985756797,351.73588841832066,-0.05493311036789095
20201100000000.0,-0.1,-0.5,0.8,3.14159,1.5708,1.74533,-2.50961,-2.05539,2.02833,-3.11448,-0.458218,-0.000873391,21.99250031,435.74183,0.0060418,-3079.4845,0.0030486,-424.33667,0.0018295,-90.120708,0.0023141,-29.992909,0.0013046,-90.237089,0.0020967,,535.7418299999999,-2579.4845,-1224.3366700000001,2905.126481869367,-270.1205559605043,-119.99311945914971,-190.237131857568,351.5019627361182,-0.05493311036789095
20201100000000.0,-0.2,-0.5,0.8,2.96706,1.5708,1.5708,-2.67479,-0.0810474,-1.97032,-1.09033,-0.293288,-0.000849072,21.99250031,530.99651,0.0068583,-3042.89,0.0096006,-425.37879,0.0032858,-90.287378,0.001541,-29.977021,0.0010349,-90.362814,0.0038903,,730.99651,-2542.89,-1225.37879,2915.852984756612,-260.28739356208604,-119.97723145914972,-180.3630244591497,338.6368023531974,-0.05493311036789095
20201100000000.0,-0.2,-0.5,0.8,2.96706,1.5708,1.5708,-2.67485,-1.95036,1.97036,-3.16147,-0.293204,-0.000873391,21.99250031,530.12135,0.016077,-3044.7853,0.00848,-423.74356,0.0054101,-90.119745,0.0024631,-29.90079,0.0021223,-90.242914,0.0050887,,730.12135,-2544.7853,-1223.74356,2916.600368487837,-260.11976056208607,-119.90100045914971,-180.24312445914973,338.41708535589413,-0.05493311036789095
20201100000000.0,-0.2,-0.5,0.8,3.14159,1.39626,1.5708,-2.62532,-0.199838,-1.9558,-0.643406,-0.543378,-0.297299,21.99250031,528.21839,0.017367,-3043.9427,0.010725,-422.51947,0.0050453,-100.84761,0.0023594,-19.669485,0.0021846,-94.042821,0.0066283,,728.21839,-2543.9427,-1222.51947,2914.875698712822,-280.8474579605043,-99.66929010293632,-184.04303145914972,350.2586179684578,-0.05493311036789095
20201100000000.0,-0.2,-0.5,0.8,3.14159,1.39626,1.5708,-2.62539,-2.05621,1.9558,-2.69841,-0.543281,-0.297371,21.99250031,527.18264,0.016914,-3046.1645,0.0054482,-420.96876,0.006382,-100.69569,0.0019234,-19.627133,0.0017596,-93.909626,0.0040833,,727.18264,-2546.1645,-1220.96876,2915.906885665857,-280.6955379605043,-99.62693810293632,-183.90983645914972,350.0547668196141,-0.05493311036789095
20201100000000.0,-0.2,-0.5,0.8,3.14159,1.74533,1.5708,-2.62532,-0.0230354,-2.00027,-1.46081,-0.543318,0.295728,21.99250031,528.37389,0.017903,-3043.6533,0.0075668,-428.31568,0.0035017,-79.594425,0.0033663,-19.750603,0.002992,-86.717985,0.011787,,728.37389,-2543.6533,-1228.31568,2917.0978804230213,-259.5942729605043,-119.75064585756797,-176.7181954591497,336.09332683577003,-0.05493311036789095
20201100000000.0,-0.2,-0.5,0.8,3.14159,1.74533,1.5708,-2.62541,-1.91897,2.00028,-3.5655,-0.543197,0.295716,21.99250031,527.56707,0.017403,-3045.7397,0.0086098,-426.64215,0.0055503,-79.458511,0.0016083,-19.644701,0.0016161,-86.631314,0.0033041,,727.56707,-2545.7397,-1226.6421500000001,2918.0122387784972,-259.4583589605043,-119.64474385756797,-176.63152445914972,335.90504640446255,-0.05493311036789095
20201100000000.0,-0.2,-0.5,0.8,3.14159,1.5708,1.39626,-2.56733,-0.119328,-2.01393,-1.00833,-0.749618,-0.000789467,21.99250031,525.29944,0.017203,-3044.804,0.008212,-425.33703,0.0022707,-90.178155,0.0023268,-10.039568,0.0015803,-90.279822,0.0035936,,725.29944,-2544.804,-1225.3370300000001,2916.082562817716,-270.1780029605043,-100.03977845914972,-170.27962710293633,334.6629079599307,-0.05493311036789095
20201100000000.0,-0.2,-0.5,0.8,3.14159,1.5708,1.39626,-2.56742,-2.02752,2.01398,-3.12798,-0.749546,-0.000873391,21.99250031,524.5012,0.020673,-3047.0756,0.004605,-424.02436,0.0051261,-90.047977,0.003154,-9.9693879,0.0017561,-90.170932,0.0050529,,724.5012,-2547.0756,-1224.02436,2917.3158441948326,-270.0478249605043,-99.96959835914971,-170.1707371029363,334.48143166421886,-0.05493311036789095
20201100000000.0,-0.2,-0.5,0.8,3.14159,1.5708,1.74533,-2.67477,-0.0810235,-1.97031,-1.09024,-0.293312,-0.000765626,21.99250031,531.01458,0.0076494,-3042.8598,0.0074929,-425.39685,0.0053556,-90.289665,0.0014481,-29.97521,0.0013965,-90.354661,0.0037013,,731.01458,-2542.8598,-1225.39685,2915.838767596477,-270.2895129605043,-119.97542045914972,-190.35470385756798,351.6894021881791,-0.05493311036789095
20201100000000.0,-0.2,-0.5,0.8,3.14159,1.5708,1.74533,-2.67489,-1.95041,1.97037,-3.16143,-0.29324,-0.000885312,21.99250031,530.11769,0.016914,-3044.7824,0.0086231,-423.7494,0.0040589,-90.119498,0.0020912,-29.901555,0.0020142,-90.243668,0.0049534,,730.11769,-2544.7824,-1223.7494,2916.599372317195,-270.1193459605043,-119.90176545914971,-190.24371085756798,351.47341854428976,-0.05493311036789095
20201100000000.0,-0.3,-0.5,0.8,2.96706,1.5708,1.5708,-2.78003,-0.0291413,-1.88355,-1.22892,-0.188013,-0.000813309,21.99250031,625.05879,0.012279,-3008.8006,0.00669,-425.34293,0.0060266,-90.274516,0.0010676,-30.037809,0.00064907,-90.343218,0.0034301,,925.05879,-2508.8006,-1225.34293,2941.305749427898,-260.27453156208605,-120.03801945914971,-180.34342845914972,338.6380222065133,-0.05493311036789095
20201100000000.0,-0.3,-0.5,0.8,2.96706,1.5708,1.5708,-2.78009,-1.82064,1.88358,-3.20458,-0.187953,-0.000801388,21.99250031,624.08181,0.0083333,-3010.4655,0.0032271,-423.27499,0.0074809,-90.116403,0.0013326,-29.946699,0.0011081,-90.24558,0.0029692,,924.08181,-2510.4655,-1223.27499,2941.55841679587,-260.11641856208604,-119.94690945914971,-180.2457904591497,338.4322048396274,-0.05493311036789095
20201100000000.0,-0.3,-0.5,0.8,3.14159,1.39626,1.5708,-2.74831,-0.152558,-1.89103,-0.667601,-0.42922,-0.396338,21.99250031,622.26721,0.0045165,-3009.8953,0.0058978,-422.28506,0.0082176,-100.85292,0.0019945,-19.664986,0.0029447,-94.024376,0.0032108,,922.26721,-2509.8953,-1222.28506,2940.0904733532398,-280.8527679605043,-99.66479110293632,-184.0245864591497,350.2519040321264,-0.05493311036789095
20201100000000.0,-0.3,-0.5,0.8,3.14159,1.39626,1.5708,-2.74833,-1.9508,1.89109,-2.65129,-0.429148,-0.396553,21.99250031,621.29649,0.0021994,-3011.6514,0.0012574,-420.6184,0.001516,-100.70291,0.001078,-19.61267,0.00095934,-93.910761,0.0014623,,921.29649,-2511.6514,-1220.6184,2940.593351013846,-280.7027579605043,-99.61247510293632,-183.91097145914972,350.05703670375595,-0.05493311036789095
20201100000000.0,-0.3,-0.5,0.8,3.14159,1.74533,1.5708,-2.74831,0.022115,-1.8963,-1.69795,-0.429148,0.394788,21.99250031,622.48799,0.011629,-3009.6572,0.008454,-428.0956,0.0050937,-79.567069,0.0039405,-19.729185,0.0026296,-86.672613,0.0050594,,922.48799,-2509.6572,-1228.0956,2942.376956806426,-259.5669169605043,-119.72922785756798,-176.6728234591497,336.04071023133287,-0.05493311036789095
20201100000000.0,-0.3,-0.5,0.8,3.14159,1.74533,1.5708,-2.74833,-1.78094,1.8963,-3.68754,-0.429148,0.394765,21.99250031,621.60619,0.020636,-3011.381,0.0063912,-426.00838,0.014143,-79.41843,0.0012898,-19.633743,0.0026767,-86.643947,0.0010367,,921.60619,-2511.381,-1226.00838,2942.700977747746,-259.41827796050427,-119.63378585756797,-176.6441574591497,335.8768286486294,-0.05493311036789095
20201100000000.0,-0.3,-0.5,0.8,3.14159,1.5708,1.39626,-2.7114,-0.0643972,-1.94703,-1.13018,-0.60572,-0.000849072,21.99250031,619.82182,0.015446,-3010.5969,0.0075428,-425.17924,0.0037317,-90.173046,0.0026792,-10.005847,0.0015556,-90.272744,0.0048061,,919.82182,-2510.5969,-1225.17924,2941.127869536566,-270.1728939605043,-100.00605745914972,-170.27254910293632,334.6451032624391,-0.05493311036789095
20201100000000.0,-0.3,-0.5,0.8,3.14159,1.5708,1.39626,-2.71146,-1.91301,1.94707,-3.17563,-0.605599,-0.000813309,21.99250031,618.9404,0.0054772,-3012.4838,0.0031467,-423.42827,0.0035132,-90.046171,0.0018039,-9.9182236,0.0014993,-90.170304,0.0020539,,918.9404,-2512.4838,-1223.4282699999999,2941.7346984134706,-270.0460189605043,-99.91843405914972,-170.17010910293632,334.46436559573124,-0.05493311036789095
20201100000000.0,-0.3,-0.5,0.8,3.14159,1.5708,1.74533,-2.78009,-0.0291532,-1.88356,-1.22888,-0.188013,-0.000789467,21.99250031,625.0377,0.0040433,-3008.8151,0.0071997,-425.33503,0.0031822,-90.276018,0.0013115,-30.038556,0.0010765,-90.339259,0.0034381,,925.0377,-2508.8151,-1225.33503,2941.3081933307158,-270.2758659605043,-120.03876645914971,-190.339301857568,351.69219355192,-0.05493311036789095
20201100000000.0,-0.3,-0.5,0.8,3.14159,1.5708,1.74533,-2.78012,-1.82069,1.88355,-3.20459,-0.187929,-0.000789467,21.99250031,624.06558,0.0045967,-3010.4741,0.0022509,-423.27097,0.0051866,-90.113572,0.002412,-29.949171,0.0015774,-90.246979,0.0042731,,924.06558,-2510.4741,-1223.27097,2941.558986142601,-270.1134199605043,-119.94938145914972,-190.24702185756797,351.48690314272926,-0.05493311036789095
20201100000000.0,-0.4,-0.5,0.8,2.96706,1.5708,1.5708,-2.84958,0.00794888,-1.76997,-1.37955,-0.11826,-0.000849072,21.99250031,718.70621,0.023595,-2974.7402,0.013552,-425.21323,0.0051644,-90.257455,0.0021746,-30.03783,0.00081717,-90.360868,0.0023509,,1118.70621,-2474.7402,-1225.21323,2979.4278143220117,-260.25747056208604,-120.03804045914971,-180.36107845914972,338.63431716764194,-0.05493311036789095
20201100000000.0,-0.4,-0.5,0.8,2.96706,1.5708,1.5708,-2.8496,-1.68018,1.76996,-3.23119,-0.11826,-0.000813309,21.99250031,717.95669,0.010486,-2976.049,0.0045951,-423.00361,0.010575,-90.117991,0.002603,-29.941577,0.0027029,-90.250987,0.0020384,,1117.95669,-2476.049,-1223.00361,2979.326038081396,-260.11800656208607,-119.94178745914971,-180.2511974591497,338.4344898236388,-0.05493311036789095
20201100000000.0,-0.4,-0.5,0.8,3.14159,1.39626,1.5708,-2.82824,-0.111458,-1.80178,-0.70994,-0.358095,-0.491541,21.99250031,715.85756,0.010327,-2975.8599,0.002933,-422.14572,0.0041141,-100.85961,0.0015038,-19.667784,0.0020592,-93.996929,0.0052221,,1115.85756,-2475.8599,-1222.14572,2978.029633759792,-280.8594579605043,-99.66758910293632,-183.9971394591497,350.2436448711237,-0.05493311036789095
20201100000000.0,-0.4,-0.5,0.8,3.14159,1.39626,1.5708,-2.82827,-1.8287,1.80175,-2.59604,-0.358095,-0.491816,21.99250031,715.31854,0.0026519,-2977.1514,0.001799,-420.49528,0.00554,-100.72298,0.0012162,-19.599302,0.00107,-93.874677,0.0025036,,1115.31854,-2477.1514,-1220.49528,2978.224845892595,-280.72282796050433,-99.59910710293633,-183.8748874591497,350.05037139240414,-0.05493311036789095
20201100000000.0,-0.4,-0.5,0.8,3.14159,1.74533,1.5708,-2.82826,0.0479167,-1.75993,-1.94812,-0.35812,0.489964,21.99250031,715.96453,0.012783,-2975.8261,0.0040161,-427.73428,0.0062497,-79.51476,0.0026889,-19.739842,0.001757,-86.674675,0.0035733,,1115.96453,-2475.8261,-1227.7342800000001,2980.339439048252,-259.5146079605043,-119.73988485756797,-176.67488545914972,336.00518883285355,-0.05493311036789095
20201100000000.0,-0.4,-0.5,0.8,3.14159,1.74533,1.5708,-2.82828,-1.63105,1.75994,-3.78908,-0.358,0.489904,21.99250031,715.32204,0.014199,-2977.1128,0.0051003,-425.4601,0.010578,-79.401657,0.002723,-19.614396,0.0041574,-86.611644,0.0037248,,1115.32204,-2477.1128,-1225.4601,2980.2321274567876,-259.4015049605043,-119.61443885756798,-176.6118544591497,335.8399944832141,-0.05493311036789095
20201100000000.0,-0.4,-0.5,0.8,3.14159,1.5708,1.39626,-2.80385,-0.015982,-1.85205,-1.27341,-0.51319,-0.000860993,21.99250031,713.63973,0.0074265,-2976.4617,0.0031831,-425.13076,0.0039514,-90.16088,0.0009846,-10.050744,0.00097561,-90.26889,0.0015277,,1113.6397299999999,-2476.4617,-1225.13076,2978.926212395926,-270.1607279605043,-100.05095445914971,-170.2686951029363,334.6467405375303,-0.05493311036789095
20201100000000.0,-0.4,-0.5,0.8,3.14159,1.5708,1.39626,-2.80385,-1.779,1.85203,-3.21458,-0.513106,-0.000837151,21.99250031,712.86097,0.0048103,-2978.0466,0.0023385,-423.1957,0.0039192,-90.050842,0.0019802,-9.9575384,0.0011847,-90.162332,0.0016681,,1112.86097,-2478.0466,-1223.1957,2979.157970101517,-270.0506899605043,-99.95774885914972,-170.16213710293633,334.47582813795646,-0.05493311036789095
20201100000000.0,-0.4,-0.5,0.8,3.14159,1.5708,1.74533,-2.84956,0.00794888,-1.76994,-1.37955,-0.118308,-0.000849072,21.99250031,718.7378,0.031441,-2974.7263,0.015502,-425.20428,0.0043501,-90.256383,0.0018509,-30.03678,0.0014015,-90.363336,0.0044973,,1118.7377999999999,-2474.7263,-1225.20428,2979.4244499216366,-270.2562309605043,-120.0369904591497,-190.36337885756797,351.6895299287959,-0.05493311036789095
20201100000000.0,-0.4,-0.5,0.8,3.14159,1.5708,1.74533,-2.84958,-1.68019,1.77002,-3.23124,-0.118224,-0.000873391,21.99250031,717.96055,0.012503,-2976.0533,0.0052475,-422.98676,0.0080906,-90.117783,0.0028271,-29.940097,0.0030545,-90.252316,0.0014372,,1117.96055,-2476.0533,-1222.98676,2979.324143313797,-270.1176309605043,-119.94030745914972,-190.25235885756797,351.48993152006415,-0.05493311036789095
20201100000000.0,0.4,-0.6,0.8,2.96706,1.5708,1.5708,-1.13989,0.0121831,-1.74849,-1.40533,-1.82811,-0.000873391,21.99250031,-68.612095,0.0079545,-3155.0309,0.0033677,-427.20241,0.010639,-90.143262,0.001163,-30.087177,0.001095,-90.336076,0.0011118,,-468.612095,-2555.0309,-1227.2024099999999,2872.943777842669,-260.14327756208604,-120.08738745914971,-180.33628645914973,338.5508554137547,-0.05493311036789095
20201100000000.0,0.4,-0.6,0.8,2.96706,1.5708,1.5708,-1.13987,-1.65634,1.74856,-3.2338,-1.82806,-0.000777547,21.99250031,-66.70334,0.0068284,-3155.762,0.0064732,-425.43376,0.010068,-90.187298,0.0019781,-29.984872,0.0016996,-90.240783,0.0014619,,-466.70334,-2555.762,-1225.43376,2872.5283825158094,-260.18731356208605,-119.98508245914971,-180.2409934591497,338.4976718893728,-0.05493311036789095
20201100000000.0,0.4,-0.6,0.8,3.14159,1.39626,1.5708,-1.0809,-0.0476511,-1.68298,-1.21369,-2.05328,0.0915861,21.99250031,-71.348461,0.0062165,-3155.9611,0.014115,-424.30221,0.0085827,-100.73902,0.0013863,-19.710727,0.0010572,-93.934134,0.0041715,,-471.348461,-2555.9611,-1224.30221,2872.9814510036717,-280.7388679605043,-99.71053210293633,-183.9343444591497,350.1261847785928,-0.05493311036789095
20201100000000.0,0.4,-0.6,0.8,3.14159,1.39626,1.5708,-1.08087,-1.6558,1.68296,-2.97139,-2.05333,0.0915981,21.99250031,-69.278807,0.0047164,-3156.7497,0.0021377,-422.93929,0.0027829,-100.7855,0.0020325,-19.632051,0.001903,-93.828719,0.0021978,,-469.27880700000003,-2556.7497,-1222.93929,2872.7638493574677,-280.7853479605043,-99.63185610293633,-183.82892945914972,350.0856947747433,-0.05493311036789095
20201100000000.0,0.4,-0.6,0.8,3.14159,1.74533,1.5708,-1.08088,0.0755891,-1.72455,-1.68988,-2.0533,-0.0931771,21.99250031,-71.106055,0.010297,-3156.0462,0.01293,-429.79894,0.0059164,-79.46902,0.0027233,-19.808521,0.0018462,-86.691033,0.0039901,,-471.10605499999997,-2556.0462,-1229.7989400000001,2875.364068151584,-259.4688679605043,-119.80856385756798,-176.69124345914972,336.00294779876424,-0.05493311036789095
20201100000000.0,0.4,-0.6,0.8,3.14159,1.74533,1.5708,-1.08088,-1.57077,1.72456,-3.49255,-2.0534,-0.0931533,21.99250031,-69.483314,0.0053076,-3156.388,0.01232,-428.53146,0.015104,-79.551726,0.0034714,-19.69297,0.00297,-86.641799,0.0016623,,-469.483314,-2556.388,-1228.53146,2874.8606465145667,-259.5515739605043,-119.69301285756798,-176.64200945914973,335.9997565148871,-0.05493311036789095
20201100000000.0,0.4,-0.6,0.8,3.14159,1.5708,1.39626,-1.02633,0.022367,-1.66781,-1.49614,-2.29053,-0.000885312,21.99250031,-74.066505,0.021675,-3156.6001,0.0029409,-427.39315,0.007152,-90.124466,0.0014317,-10.054996,0.0018473,-90.326146,0.0073837,,-474.066505,-2556.6001,-1227.3931499999999,2875.315124842814,-270.1243139605043,-100.05520645914972,-170.3259511029363,334.6477535429396,-0.05493311036789095
20201100000000.0,0.4,-0.6,0.8,3.14159,1.5708,1.39626,-1.02631,-1.57172,1.66789,-3.23776,-2.29053,-0.000741784,21.99250031,-72.044743,0.0080559,-3157.2907,0.0082274,-426.11374,0.016519,-90.167263,0.001801,-9.9580038,0.0010046,-90.21381,0.0021539,,-472.044743,-2557.2907,-1226.11374,2875.050759050562,-270.1671109605043,-99.95821425914971,-170.21361510293633,334.59615540085645,-0.05493311036789095
20201100000000.0,0.4,-0.6,0.8,3.14159,1.5708,1.74533,-1.13984,0.012231,-1.74851,-1.40537,-1.82812,-0.000765626,21.99250031,-68.610966,0.0024281,-3155.0286,0.0013674,-427.21499,0.0032353,-90.14236,0.0009894,-30.085044,0.0020111,-90.331452,0.00096197,,-468.610966,-2555.0286,-1227.21499,2872.946921882497,-270.14220796050427,-120.08525445914971,-190.33149485756798,351.60113594101415,-0.05493311036789095
20201100000000.0,0.4,-0.6,0.8,3.14159,1.5708,1.74533,-1.13986,-1.6563,1.74857,-3.23383,-1.82809,-0.000789467,21.99250031,-66.694849,0.0084014,-3155.7474,0.0068869,-425.44999,0.014741,-90.189245,0.001873,-29.98357,0.0015632,-90.244615,0.0011944,,-466.694849,-2555.7474,-1225.44999,2872.5209368568394,-270.1890929605043,-119.98378045914971,-190.24465785756797,351.5555196145163,-0.05493311036789095
20201100000000.0,0.3,-0.6,0.8,2.96706,1.5708,1.5708,-1.33499,-0.011916,-1.84081,-1.28889,-1.63292,-0.000849072,21.99250031,25.055255,0.007093,-3120.9045,0.0063411,-426.8392,0.0099834,-90.147737,0.0014594,-30.125519,0.0018327,-90.35718,0.0023779,,-274.944745,-2520.9045,-1226.8392,2817.0354157482657,-260.14775256208605,-120.12572945914971,-180.3573904591497,338.57913747664867,-0.05493311036789095
20201100000000.0,0.3,-0.6,0.8,2.96706,1.5708,1.5708,-1.33499,-1.7649,1.84086,-3.21747,-1.63295,-0.000813309,21.99250031,26.682494,0.010884,-3121.7894,0.0084669,-425.53879,0.021627,-90.218881,0.0013097,-30.034647,0.0017464,-90.261141,0.001958,,-273.317506,-2521.7894,-1225.53879,2817.1030444115963,-260.21889656208606,-120.03485745914972,-180.2613514591497,338.5504334114891,-0.05493311036789095
20201100000000.0,0.3,-0.6,0.8,3.14159,1.39626,1.5708,-1.26238,-0.0714143,-1.77812,-1.10905,-1.87529,0.0544279,21.99250031,22.550144,0.0079257,-3122.0182,0.015653,-423.9027,0.004121,-100.73513,0.0016914,-19.761276,0.0038674,-93.934396,0.0031991,,-277.449856,-2522.0182,-1223.9027,2817.000540076794,-280.7349779605043,-99.76108110293632,-183.93460645914973,350.1376023888234,-0.05493311036789095
20201100000000.0,0.3,-0.6,0.8,3.14159,1.39626,1.5708,-1.26235,-1.76704,1.77818,-2.96963,-1.8753,0.0545469,21.99250031,24.105559,0.018665,-3122.8136,0.022123,-422.70349,0.0091037,-100.78511,0.0025661,-19.694404,0.0017489,-93.81796,0.0021669,,-275.89444100000003,-2522.8136,-1222.7034899999999,2817.039230713311,-280.7849579605043,-99.69420910293633,-183.8181704591497,350.097483190741,-0.05493311036789095
20201100000000.0,0.3,-0.6,0.8,3.14159,1.74533,1.5708,-1.26236,0.0596354,-1.83414,-1.54988,-1.87534,-0.0560663,21.99250031,22.468805,0.017358,-3121.8272,0.018647,-429.68628,0.0053899,-79.522757,0.0017324,-19.869266,0.0015655,-86.721793,0.0028844,,-277.531195,-2521.8272,-1229.68628,2819.3553053984183,-259.5226049605043,-119.86930885756797,-176.72200345914973,336.08228188658313,-0.05493311036789095
20201100000000.0,0.3,-0.6,0.8,3.14159,1.74533,1.5708,-1.26227,-1.68723,1.83424,-3.47157,-1.87536,-0.0560067,21.99250031,24.27618,0.0066404,-3122.6362,0.0069966,-428.1449,0.013318,-79.535886,0.0012618,-19.738674,0.0010586,-86.620886,0.00096692,,-275.72382,-2522.6362,-1228.1449,2819.2298448090114,-259.53573396050433,-119.73871685756798,-176.62109645914973,335.9928112795671,-0.05493311036789095
20201100000000.0,0.3,-0.6,0.8,3.14159,1.5708,1.39626,-1.19458,0.00593328,-1.77914,-1.36837,-2.12245,-0.000909154,21.99250031,20.261464,0.0071623,-3122.4698,0.0027694,-426.86249,0.0069898,-90.034823,0.0011934,-10.045477,0.00078663,-90.253007,0.0021017,,-279.738536,-2522.4698,-1226.86249,2818.9180743335664,-270.0346709605043,-100.04568745914972,-170.25281210293633,334.5353241869675,-0.05493311036789095
20201100000000.0,0.3,-0.6,0.8,3.14159,1.5708,1.39626,-1.19463,-1.69082,1.77918,-3.22988,-2.12235,-0.000717942,21.99250031,22.108906,0.0088368,-3123.3326,0.0052465,-425.37619,0.013082,-90.134035,0.001253,-9.9424661,0.0019306,-90.181692,0.0012934,,-277.891094,-2523.3326,-1225.37619,2818.8610603160623,-270.1338829605043,-99.94267655914972,-170.1814971029363,334.54834520189,-0.05493311036789095
20201100000000.0,0.3,-0.6,0.8,3.14159,1.5708,1.74533,-1.33499,-0.0119041,-1.84081,-1.28884,-1.63288,-0.000873391,21.99250031,25.06009,0.0047597,-3120.9017,0.0084014,-426.8441,0.0042195,-90.150905,0.00093845,-30.124678,0.00071516,-90.357163,0.00118,,-274.93991,-2520.9017,-1226.8441,2817.0345721837543,-270.1507529605043,-120.12488845914972,-190.35720585756798,351.6351574776776,-0.05493311036789095
20201100000000.0,0.3,-0.6,0.8,3.14159,1.5708,1.74533,-1.33496,-1.76486,1.84085,-3.21747,-1.63291,-0.00082523,21.99250031,26.694834,0.0045161,-3121.8189,0.0042534,-425.49049,0.0087583,-90.212402,0.0033669,-30.032767,0.0015195,-90.259176,0.002748,,-273.305166,-2521.8189,-1225.4904900000001,2817.1072431201374,-270.2122499605043,-120.03297745914972,-190.259218857568,351.5979892813933,-0.05493311036789095
20201100000000.0,0.2,-0.6,0.8,2.96706,1.5708,1.5708,-1.56768,-0.0396856,-1.90521,-1.19669,-1.40044,-0.00082523,21.99250031,119.10616,0.0030903,-3086.1223,0.0043343,-426.58285,0.0033327,-90.227177,0.0017695,-30.099882,0.0020682,-90.396154,0.0022673,,-80.89384,-2486.1223,-1226.58285,2773.4190797319757,-260.22719256208603,-120.10009245914972,-180.3963644591497,338.65184521499316,-0.05493311036789095
20201100000000.0,0.2,-0.6,0.8,2.96706,1.5708,1.5708,-1.56761,-1.85083,1.90522,-3.19577,-1.40039,-0.000777547,21.99250031,120.60988,0.008618,-3087.8372,0.0054666,-424.98433,0.0053459,-90.178526,0.0030501,-30.016723,0.0025567,-90.228851,0.0020178,,-79.39012,-2487.8372,-1224.98433,2774.2067935903774,-260.178541562086,-120.01693345914971,-180.2290614591497,338.49586762729916,-0.05493311036789095
20201100000000.0,0.2,-0.6,0.8,3.14159,1.39626,1.5708,-1.48256,-0.101033,-1.84741,-1.01797,-1.65855,0.0145766,21.99250031,116.91982,0.0014752,-3087.3562,0.002223,-423.53954,0.0081079,-100.76593,0.0029603,-19.703254,0.0020277,-93.956375,0.0022917,,-83.08018,-2487.3562,-1223.53954,2773.2457857050254,-280.7657779605043,-99.70305910293632,-183.95658545914972,350.1573180758047,-0.05493311036789095
20201100000000.0,0.2,-0.6,0.8,3.14159,1.39626,1.5708,-1.48256,-1.85997,1.84751,-2.95382,-1.65855,0.0146241,21.99250031,118.32725,0.0078725,-3088.5611,0.0020887,-422.34066,0.0078116,-100.7585,0.0025278,-19.648562,0.0013995,-93.798198,0.0030746,,-81.67275,-2488.5611,-1222.34066,2773.75620334863,-280.7583479605043,-99.64836710293632,-183.7984084591497,350.0527131274797,-0.05493311036789095
20201100000000.0,0.2,-0.6,0.8,3.14159,1.74533,1.5708,-1.48253,0.0352138,-1.91394,-1.43804,-1.65854,-0.0161794,21.99250031,116.67538,0.0048536,-3086.7769,0.0028042,-429.3933,0.0024406,-79.528061,0.0012741,-19.816126,0.0022177,-86.709506,0.0015974,,-83.32462,-2486.7769,-1229.3933,2775.321644198496,-259.5279089605043,-119.81616885756797,-176.70971645914972,336.0609672963972,-0.05493311036789095
20201100000000.0,0.2,-0.6,0.8,3.14159,1.74533,1.5708,-1.48254,-1.78388,1.91401,-3.44687,-1.65858,-0.0161794,21.99250031,118.39661,0.0034221,-3088.3661,0.0068887,-427.7354,0.0092759,-79.510808,0.0035975,-19.693782,0.00098481,-86.585866,0.0019585,,-81.60339,-2488.3661,-1227.7354,2775.960945925188,-259.5106559605043,-119.69382485756798,-176.5860764591497,335.93903414953445,-0.05493311036789095
20201100000000.0,0.2,-0.6,0.8,3.14159,1.5708,1.39626,-1.40138,-0.0203489,-1.86312,-1.25813,-1.91535,-0.000885312,21.99250031,114.09252,0.017182,-3087.8402,0.0034226,-426.50406,0.001906,-90.075763,0.0020911,-10.08079,0.0013832,-90.292462,0.0053336,,-85.90748,-2487.8402,-1226.50406,2775.074983681067,-270.07561096050426,-100.08100045914972,-170.2922671029363,334.5990115401595,-0.05493311036789095
20201100000000.0,0.2,-0.6,0.8,3.14159,1.5708,1.39626,-1.40138,-1.79354,1.86316,-3.21109,-1.91535,-0.000765626,21.99250031,115.84248,0.012981,-3089.2724,0.0050629,-425.13605,0.0088115,-90.129461,0.0041243,-9.9917597,0.001588,-90.175364,0.0072804,,-84.15752,-2489.2724,-1225.13605,2775.7013367046375,-270.1293089605043,-99.99197015914972,-170.1751691029363,334.5561624525856,-0.05493311036789095
20201100000000.0,0.2,-0.6,0.8,3.14159,1.5708,1.74533,-1.56765,-0.0396617,-1.9052,-1.19664,-1.40041,-0.000837151,21.99250031,119.08801,0.0042853,-3086.1297,0.0068385,-426.5859,0.0056044,-90.226436,0.0012136,-30.099764,0.0012476,-90.395627,0.0019822,,-80.91199,-2486.1297,-1226.5859,2773.427591524008,-270.2262839605043,-120.0999744591497,-190.39566985756798,351.70550110668376,-0.05493311036789095
20201100000000.0,0.2,-0.6,0.8,3.14159,1.5708,1.74533,-1.56759,-1.85078,1.90525,-3.19592,-1.40042,-0.000789467,21.99250031,120.62076,0.0024869,-3087.8354,0.0049459,-424.97202,0.0060527,-90.174126,0.0046783,-30.013216,0.0035025,-90.23036,0.0030127,,-79.37924,-2487.8354,-1224.97202,2774.199432452364,-270.1739739605043,-120.01342645914971,-190.23040285756798,351.54630549534954,-0.05493311036789095
20201100000000.0,0.1,-0.6,0.8,2.96706,1.5708,1.5708,-1.82432,-0.0599225,-1.9402,-1.14152,-1.14356,-0.000849072,21.99250031,213.7861,0.0040441,-3051.5571,0.0042053,-426.22687,0.0037654,-90.228879,0.0015821,-30.039232,0.0022866,-90.398339,0.0029892,,113.7861,-2451.5571,-1226.22687,2743.4853431034794,-260.22889456208605,-120.03944245914971,-180.3985494591497,338.6328128783064,-0.05493311036789095
20201100000000.0,0.1,-0.6,0.8,2.96706,1.5708,1.5708,-1.82433,-1.90258,1.94023,-3.1792,-1.14362,-0.000860993,21.99250031,214.78095,0.0074976,-3053.5673,0.0034473,-424.58773,0.0084934,-90.152105,0.0018163,-29.962205,0.0024653,-90.225317,0.002608,,114.78094999999999,-2453.5673,-1224.58773,2744.591457863765,-260.15212056208605,-119.96241545914971,-180.2255274591497,338.4543509894245,-0.05493311036789095
20201100000000.0,0.1,-0.6,0.8,3.14159,1.39626,1.5708,-1.73348,-0.126886,-1.89006,-0.947691,-1.41152,-0.0292237,21.99250031,211.12338,0.0035935,-3052.7112,0.013823,-423.24869,0.0063191,-100.78216,0.001929,-19.685404,0.0014925,-93.987656,0.0035474,,111.12338,-2452.7112,-1223.24869,2743.078196802778,-280.7820079605043,-99.68520910293631,-183.9878664591497,350.1816841475561,-0.05493311036789095
20201100000000.0,0.1,-0.6,0.8,3.14159,1.39626,1.5708,-1.7335,-1.92461,1.89015,-2.93035,-1.41148,-0.0293196,21.99250031,212.2878,0.0043788,-3054.6271,0.0019453,-421.72897,0.0060669,-100.71376,0.0030628,-19.633463,0.00095169,-93.815442,0.0014764,,112.2878,-2454.6271,-1221.7289700000001,2744.1618804692466,-280.7136079605043,-99.63326810293631,-183.8156524591497,350.02158775718135,-0.05493311036789095
20201100000000.0,0.1,-0.6,0.8,3.14159,1.74533,1.5708,-1.73346,0.0131665,-1.96194,-1.36953,-1.4115,0.0276326,21.99250031,211.04586,0.0041569,-3052.3836,0.0095276,-429.02449,0.0054879,-79.502604,0.0014083,-19.789275,0.0011405,-86.683592,0.0031447,,111.04586,-2452.3836,-1229.02449,2745.3629453301546,-259.5024519605043,-119.78931785756798,-176.68380245914972,336.0181085860093,-0.05493311036789095
20201100000000.0,0.1,-0.6,0.8,3.14159,1.74533,1.5708,-1.73352,-1.84889,1.96192,-3.43139,-1.41138,0.0275967,21.99250031,212.35795,0.0045818,-3054.2643,0.0069164,-427.50267,0.010742,-79.497024,0.0039216,-19.666348,0.0013532,-86.558008,0.0029676,,112.35794999999999,-2454.2643,-1227.50267,2746.415913156604,-259.4968719605043,-119.66639085756798,-176.5582184591497,335.90396866311573,-0.05493311036789095
20201100000000.0,0.1,-0.6,0.8,3.14159,1.5708,1.39626,-1.64346,-0.0470508,-1.91885,-1.17575,-1.67341,-0.00082523,21.99250031,208.24339,0.0048585,-3053.4396,0.0021198,-426.16975,0.0030142,-90.108055,0.0015652,-10.06662,0.001236,-90.30722,0.0027058,,108.24339,-2453.4396,-1226.16975,2744.9179875074437,-270.1079029605043,-100.06683045914971,-170.30702510293634,334.62834996346857,-0.05493311036789095
20201100000000.0,0.1,-0.6,0.8,3.14159,1.5708,1.39626,-1.64349,-1.87048,1.9188,-3.18986,-1.67336,-0.000849072,21.99250031,209.64142,0.0033099,-3055.2711,0.0041133,-424.79419,0.010458,-90.111958,0.0020124,-9.9791106,0.0023268,-90.16391,0.0038456,,109.64142000000001,-2455.2711,-1224.79419,2745.996763168628,-270.1118059605043,-99.97932105914971,-170.16371510293632,334.5324233857265,-0.05493311036789095
20201100000000.0,0.1,-0.6,0.8,3.14159,1.5708,1.74533,-1.8243,-0.0599225,-1.94024,-1.14152,-1.14358,-0.000813309,21.99250031,213.78386,0.0050974,-3051.5572,0.0048025,-426.22572,0.0081706,-90.230413,0.0026048,-30.040185,0.0017381,-90.397489,0.0041304,,113.78386,-2451.5572,-1226.22572,2743.484825556332,-270.2302609605043,-120.04039545914972,-190.39753185756797,351.6892244840961,-0.05493311036789095
20201100000000.0,0.1,-0.6,0.8,3.14159,1.5708,1.74533,-1.82433,-1.9026,1.94025,-3.17918,-1.14362,-0.000860993,21.99250031,214.80075,0.0051152,-3053.5584,0.0028263,-424.58354,0.010521,-90.151813,0.0019954,-29.95653,0.002544,-90.22572,0.0019339,,114.80075,-2453.5584,-1224.58354,2744.58246020229,-270.1516609605043,-119.95674045914971,-190.225762857568,351.50729772800844,-0.05493311036789095
20201100000000.0,2.78e-17,-0.6,0.8,2.96706,1.5708,1.5708,-2.07567,-0.0629457,-1.94492,-1.13373,-0.892143,-0.000777547,21.99250031,308.09152,0.014414,-3017.2882,0.0036798,-425.97033,0.0051089,-90.248974,0.0017197,-30.0242,0.0010602,-90.393298,0.0015337,,308.09152,-2417.2882,-1225.97033,2727.8573783457705,-260.2489895620861,-120.02441045914972,-180.3935084591497,338.6402420982399,-0.05493311036789095
20201100000000.0,2.78e-17,-0.6,0.8,2.96706,1.5708,1.5708,-2.07559,-1.90976,1.9449,-3.17665,-0.892323,-0.000921075,21.99250031,308.57682,0.01058,-3019.3378,0.0043671,-424.32257,0.018514,-90.145045,0.0023331,-29.942811,0.0014006,-90.224369,0.0025548,,308.57682,-2419.3378,-1224.32257,2728.9889702528217,-260.14506056208603,-119.94302145914972,-180.2245794591497,338.441545872886,-0.05493311036789095
20201100000000.0,2.78e-17,-0.6,0.8,3.14159,1.39626,1.5708,-1.99051,-0.13893,-1.90559,-0.906356,-1.15859,-0.0780504,21.99250031,305.48607,0.014526,-3018.3411,0.0028587,-422.89295,0.0024038,-100.77421,0.0012764,-19.655644,0.00091827,-94.004099,0.0026882,,305.48607,-2418.3411,-1222.89295,2727.116165855968,-280.7740579605043,-99.65544910293632,-184.0043094591497,350.1754789517037,-0.05493311036789095
20201100000000.0,2.78e-17,-0.6,0.8,3.14159,1.39626,1.5708,-1.99053,-1.95041,1.90559,-2.90604,-1.15859,-0.0781463,21.99250031,306.08935,0.0097068,-3020.4865,0.0046961,-421.46075,0.0027193,-100.70774,0.0020413,-19.608983,0.0013328,-93.840686,0.0011109,,306.08935,-2420.4865,-1221.46075,2728.44496932891,-280.70758796050427,-99.60878810293632,-183.84089645914972,350.0230504078892,-0.05493311036789095
20201100000000.0,2.78e-17,-0.6,0.8,3.14159,1.74533,1.5708,-1.99049,0.00460196,-1.97596,-1.361,-1.15861,0.0764474,21.99250031,305.48405,0.014581,-3017.9756,0.0031111,-428.78829,0.004252,-79.52498,0.0018274,-19.760449,0.001911,-86.698989,0.0030929,,305.48405,-2417.9756,-1228.78829,2729.4408161088395,-259.5248279605043,-119.76049185756798,-176.69919945914972,336.0332108994591,-0.05493311036789095
20201100000000.0,2.78e-17,-0.6,0.8,3.14159,1.74533,1.5708,-1.99054,-1.86979,1.97602,-3.43848,-1.15853,0.0764949,21.99250031,306.18375,0.0049359,-3020.0264,0.0054142,-427.32662,0.011808,-79.502954,0.0021408,-19.647635,0.00088781,-86.564209,0.0020518,,306.18375,-2420.0264,-1227.32662,2730.678834579718,-259.5028019605043,-119.64767785756797,-176.56441945914972,335.9051432488161,-0.05493311036789095
20201100000000.0,2.78e-17,-0.6,0.8,3.14159,1.5708,1.39626,-1.90211,-0.0628856,-1.94481,-1.13389,-1.41495,-0.000873391,21.99250031,302.63575,0.0085011,-3019.1716,0.0058302,-425.8477,0.0028066,-90.112956,0.0017411,-10.049322,0.0011917,-90.308804,0.0041893,,302.63575,-2419.1716,-1225.8477,2728.860973193745,-270.11280396050427,-100.04953245914972,-170.30860910293632,334.62793987244555,-0.05493311036789095
20201100000000.0,2.78e-17,-0.6,0.8,3.14159,1.5708,1.39626,-1.90207,-1.90963,1.94477,-3.17681,-1.41488,-0.000873391,21.99250031,303.52629,0.0056588,-3021.2568,0.0032776,-424.42689,0.015335,-90.089266,0.0020465,-9.9622048,0.0016301,-90.156282,0.0032565,,303.52629,-2421.2568,-1224.42689,2730.171040287124,-270.0891139605043,-99.96241525914971,-170.15608710293634,334.5051687531824,-0.05493311036789095
20201100000000.0,2.78e-17,-0.6,0.8,3.14159,1.5708,1.74533,-2.07564,-0.0629457,-1.94491,-1.13378,-0.892095,-0.000897233,21.99250031,308.09742,0.013308,-3017.2507,0.0029998,-425.97072,0.0020826,-90.251229,0.0022701,-30.025287,0.0013298,-90.394901,0.0040443,,308.09742,-2417.2507,-1225.97072,2727.8249894666014,-270.2510769605043,-120.0254974591497,-190.39494385756797,351.6987336985381,-0.05493311036789095
20201100000000.0,2.78e-17,-0.6,0.8,3.14159,1.5708,1.74533,-2.07559,-1.90977,1.94491,-3.17668,-0.892335,-0.000873391,21.99250031,308.56919,0.010726,-3019.3427,0.0027353,-424.31069,0.010707,-90.142928,0.0013889,-29.943101,0.0013499,-90.226603,0.0015467,,308.56919,-2419.3427,-1224.31069,2728.9871217557666,-270.1427759605043,-119.94331145914971,-190.22664585756797,351.49636436477465,-0.05493311036789095
20201100000000.0,-0.1,-0.6,0.8,2.96706,1.5708,1.5708,-2.29155,-0.047231,-1.91905,-1.17541,-0.676368,-0.000813309,21.99250031,402.2836,0.006147,-2982.9435,0.0031713,-425.7791,0.0034409,-90.269847,0.0009587,-30.022311,0.00090529,-90.377312,0.0014239,,502.2836,-2382.9435,-1225.7791,2726.3974290293813,-260.269862562086,-120.02252145914971,-180.3775224591497,338.64709894520024,-0.05493311036789095
20201100000000.0,-0.1,-0.6,0.8,2.96706,1.5708,1.5708,-2.29149,-1.87081,1.9191,-3.18974,-0.676464,-0.000932995,21.99250031,402.32174,0.0089619,-2984.9709,0.0071506,-424.03851,0.012689,-90.142373,0.0020465,-29.938893,0.0024829,-90.22485,0.0028651,,502.32174,-2384.9709,-1224.0385099999999,2727.395020580344,-260.14238856208607,-119.93910345914972,-180.22506045914972,338.4383596504335,-0.05493311036789095
20201100000000.0,-0.1,-0.6,0.8,3.14159,1.39626,1.5708,-2.22126,-0.132008,-1.8936,-0.898012,-0.932849,-0.132024,21.99250031,399.34532,0.010251,-2984.2644,0.0059993,-422.66938,0.0055304,-100.78966,0.0018424,-19.67969,0.0016852,-94.017864,0.0057896,,499.34532,-2384.2644,-1222.66938,2725.616057059917,-280.7895079605043,-99.67949510293633,-184.01807445914972,350.2019435302031,-0.05493311036789095
20201100000000.0,-0.1,-0.6,0.8,3.14159,1.39626,1.5708,-2.22124,-1.93272,1.89363,-2.88453,-0.932777,-0.132143,21.99250031,399.50616,0.012185,-2986.2834,0.0035248,-421.18595,0.0067101,-100.71455,0.0020899,-19.631199,0.0017023,-93.847098,0.0063186,,499.50616,-2386.2834,-1221.18595,2726.747145129322,-280.7143979605043,-99.63100410293632,-183.8473084591497,350.0382022416431,-0.05493311036789095
20201100000000.0,-0.1,-0.6,0.8,3.14159,1.74533,1.5708,-2.22129,0.0144743,-1.95479,-1.41918,-0.932861,0.130384,21.99250031,399.42563,0.0067432,-2983.8896,0.0081867,-428.54543,0.0046658,-79.552027,0.0012976,-19.778522,0.001774,-86.713837,0.0040448,,499.42563,-2383.8896,-1228.5454300000001,2727.9441816985445,-259.5518749605043,-119.77856485756797,-176.7140474591497,336.0683486498639,-0.05493311036789095
20201100000000.0,-0.1,-0.6,0.8,3.14159,1.74533,1.5708,-2.22131,-1.84107,1.95484,-3.47335,-0.932692,0.130348,21.99250031,399.67512,0.006036,-2985.9721,0.0021901,-426.81669,0.0048379,-79.471105,0.0021788,-19.649224,0.0024188,-86.589503,0.0029251,,499.67512,-2385.9721,-1226.81669,2729.0322970584243,-259.4709529605043,-119.64926685756798,-176.58971345914972,335.8944021405691,-0.05493311036789095
20201100000000.0,-0.1,-0.6,0.8,3.14159,1.5708,1.39626,-2.14528,-0.0599344,-1.94022,-1.14145,-1.17155,-0.000801388,21.99250031,396.61762,0.014399,-2984.9467,0.0036144,-425.62623,0.0029584,-90.136386,0.001413,-10.070518,0.0016879,-90.301022,0.0023426,,496.61762,-2384.9467,-1225.62623,2727.0422581983153,-270.1362339605043,-100.0707284591497,-170.30082710293632,334.6492302466172,-0.05493311036789095
20201100000000.0,-0.1,-0.6,0.8,3.14159,1.5708,1.39626,-2.14526,-1.90259,1.94027,-3.17928,-1.17163,-0.000885312,21.99250031,396.96528,0.0083758,-2987.1527,0.003931,-424.03215,0.011006,-90.069536,0.0025544,-9.9828589,0.00093684,-90.15753,0.003475,,496.96528,-2387.1527,-1224.03215,2728.31948401876,-270.0693839605043,-99.98306935914971,-170.15733510293632,334.4960463153725,-0.05493311036789095
20201100000000.0,-0.1,-0.6,0.8,3.14159,1.5708,1.74533,-2.29154,-0.047231,-1.91904,-1.17539,-0.676404,-0.000777547,21.99250031,402.29103,0.0055637,-2982.952,0.0043186,-425.7597,0.0053069,-90.269495,0.00087555,-30.022047,0.00076461,-90.376275,0.00077215,,502.29103,-2382.952,-1225.7597,2726.3975049993264,-270.26934296050433,-120.02225745914971,-190.37631785756798,351.70158150184494,-0.05493311036789095
20201100000000.0,-0.1,-0.6,0.8,3.14159,1.5708,1.74533,-2.29153,-1.87079,1.9191,-3.18982,-0.67644,-0.000837151,21.99250031,402.32128,0.0082495,-2984.9715,0.0078236,-424.02872,0.01259,-90.139628,0.0035208,-29.940526,0.0012353,-90.227029,0.0012725,,502.32128,-2384.9715,-1224.02872,2727.39106685087,-270.1394759605043,-119.94073645914972,-190.22707185756798,351.49318002214983,-0.05493311036789095
20201100000000.0,-0.2,-0.6,0.8,2.96706,1.5708,1.5708,-2.45948,-0.0205167,-1.86349,-1.25767,-0.508579,-0.000849072,21.99250031,496.08627,0.0031518,-2948.9307,0.0019818,-425.60073,0.0023238,-90.259199,0.001251,-30.075039,0.0015661,-90.37169,0.0056685,,696.08627,-2348.9307,-1225.60073,2739.362823369978,-260.2592145620861,-120.07524945914972,-180.3719004591497,338.65461280247814,-0.05493311036789095
20201100000000.0,-0.2,-0.6,0.8,2.96706,1.5708,1.5708,-2.4595,-1.79396,1.86351,-3.21103,-0.508483,-0.000897233,21.99250031,495.85488,0.010028,-2950.7556,0.0066073,-423.66618,0.0043608,-90.127878,0.0018135,-29.989636,0.0011333,-90.230575,0.0024975,,695.85488,-2350.7556,-1223.66618,2740.004530110665,-260.12789356208606,-119.98984645914972,-180.23078545914973,338.4482534887133,-0.05493311036789095
20201100000000.0,-0.2,-0.6,0.8,3.14159,1.39626,1.5708,-2.4061,-0.110258,-1.85485,-0.919842,-0.752872,-0.190186,21.99250031,493.54189,0.026443,-2950.1845,0.0070983,-422.45524,0.0080155,-100.80936,0.0032441,-19.664912,0.0014129,-93.999607,0.0028146,,693.54189,-2350.1845,-1222.45524,2738.38718062813,-280.8092079605043,-99.66471710293632,-183.9998174591497,350.2039404912722,-0.05493311036789095
20201100000000.0,-0.2,-0.6,0.8,3.14159,1.39626,1.5708,-2.40614,-1.87589,1.85487,-2.86376,-0.752896,-0.190294,21.99250031,493.4824,0.0091263,-2951.8119,0.0027555,-421.11488,0.0077107,-100.73055,0.0018502,-19.613938,0.0020295,-93.828978,0.0023728,,693.4824,-2351.8119,-1221.11488,2739.1711524197945,-280.7303979605043,-99.61374310293633,-183.82918845914972,350.03660477668694,-0.05493311036789095
20201100000000.0,-0.2,-0.6,0.8,3.14159,1.74533,1.5708,-2.40607,0.0364257,-1.89859,-1.53606,-0.752896,0.188582,21.99250031,493.77258,0.011711,-2949.5834,0.0049782,-428.39232,0.0032086,-79.605322,0.0023946,-19.759132,0.0014683,-86.717746,0.0035365,,693.7725800000001,-2349.5834,-1228.39232,2740.585747271995,-259.6051699605043,-119.75917485756798,-176.71795645914972,336.1046568673005,-0.05493311036789095
20201100000000.0,-0.2,-0.6,0.8,3.14159,1.74533,1.5708,-2.40612,-1.76877,1.89866,-3.52822,-0.75286,0.188617,21.99250031,493.64925,0.010079,-2951.5584,0.0068481,-426.35648,0.0047507,-79.46073,0.0017113,-19.644269,0.0018104,-86.646715,0.0024668,,693.6492499999999,-2351.5584,-1226.35648,2741.3366095162614,-259.4605779605043,-119.64431185756797,-176.6469254591497,335.9147051702862,-0.05493311036789095
20201100000000.0,-0.2,-0.6,0.8,3.14159,1.5708,1.39626,-2.347,-0.0397576,-1.90529,-1.19656,-0.969867,-0.000873391,21.99250031,491.20122,0.019435,-2950.5884,0.0091198,-425.49339,0.0037131,-90.163081,0.0027247,-10.012629,0.0017046,-90.286594,0.00598,,691.2012199999999,-2350.5884,-1225.49339,2739.4997721623818,-270.1629289605043,-100.01283945914972,-170.28639910293631,334.64613244537077,-0.05493311036789095
20201100000000.0,-0.2,-0.6,0.8,3.14159,1.5708,1.39626,-2.34709,-1.851,1.90536,-3.19589,-0.969891,-0.000849072,21.99250031,491.11413,0.0038644,-2952.7124,0.001622,-423.758,0.0020388,-90.070297,0.0024325,-9.9277211,0.0022504,-90.154927,0.0030018,,691.1141299999999,-2352.7124,-1223.758,2740.525135875133,-270.0701449605043,-99.92793155914971,-170.15473210293632,334.4788596633574,-0.05493311036789095
20201100000000.0,-0.2,-0.6,0.8,3.14159,1.5708,1.74533,-2.45948,-0.0205281,-1.86349,-1.25764,-0.508543,-0.000837151,21.99250031,496.07415,0.011839,-2948.9466,0.0028745,-425.60104,0.0029854,-90.257987,0.0012321,-30.081568,0.0020674,-90.374187,0.0031055,,696.0741499999999,-2348.9466,-1225.60104,2739.3735161892155,-270.2578349605043,-120.08177845914972,-190.37422985756797,351.71192511672615,-0.05493311036789095
20201100000000.0,-0.2,-0.6,0.8,3.14159,1.5708,1.74533,-2.45951,-1.79401,1.86354,-3.21101,-0.508471,-0.000885312,21.99250031,495.86024,0.010301,-2950.7557,0.0063138,-423.67343,0.0043718,-90.127267,0.0027599,-29.990691,0.0021392,-90.233088,0.0036954,,695.86024,-2350.7557,-1223.67343,2740.0092149449633,-270.1271149605043,-119.99090145914971,-190.23313085756797,351.50408069571176,-0.05493311036789095
20201100000000.0,-0.3,-0.6,0.8,2.96706,1.5708,1.5708,-2.58417,0.0058378,-1.77949,-1.36779,-0.383805,-0.00082523,21.99250031,590.23188,0.0043938,-2914.8295,0.0032702,-425.43383,0.0040163,-90.24637,0.0017649,-30.040133,0.00091102,-90.37889,0.0015269,,890.23188,-2314.8295,-1225.43383,2766.3399078831676,-260.24638556208606,-120.04034345914971,-180.3791004591497,338.63621356608127,-0.05493311036789095
20201100000000.0,-0.3,-0.6,0.8,2.96706,1.5708,1.5708,-2.58421,-1.69116,1.77954,-3.22995,-0.383769,-0.000860993,21.99250031,589.91148,0.0037386,-2916.3719,0.0015131,-423.28604,0.0033752,-90.122253,0.0018984,-29.937118,0.0018591,-90.241913,0.0019794,,889.91148,-2316.3719,-1223.28604,2766.5773000233125,-260.12226856208605,-119.93732845914971,-180.2421234591497,338.4313526091626,-0.05493311036789095
20201100000000.0,-0.3,-0.6,0.8,3.14159,1.39626,1.5708,-2.54478,-0.0833748,-1.79023,-0.964355,-0.619707,-0.250707,21.99250031,587.36209,0.016356,-2916.0067,0.007334,-422.41279,0.003981,-100.83603,0.0015901,-19.68785,0.0018521,-93.994336,0.0041887,,887.36209,-2316.0067,-1222.4127899999999,2765.0662817317134,-280.83587796050426,-99.68765510293632,-183.99454645914972,350.22908510927164,-0.05493311036789095
20201100000000.0,-0.3,-0.6,0.8,3.14159,1.39626,1.5708,-2.54484,-1.79008,1.79024,-2.83797,-0.619635,-0.250803,21.99250031,587.24064,0.0067469,-2917.3864,0.0055289,-420.78114,0.0074983,-100.73711,0.0034857,-19.622926,0.001528,-93.846361,0.0040604,,887.24064,-2317.3864,-1220.78114,2765.4623974938204,-280.7369579605043,-99.62273110293631,-183.84657145914971,350.0535529809834,-0.05493311036789095
20201100000000.0,-0.3,-0.6,0.8,3.14159,1.74533,1.5708,-2.54479,0.0583044,-1.80924,-1.6943,-0.619684,0.249162,21.99250031,587.36844,0.015396,-2915.9491,0.0060043,-427.96921,0.0047191,-79.541431,0.00082043,-19.774461,0.0014665,-86.75113,0.0024352,,887.36844,-2315.9491,-1227.96921,2767.481050126065,-259.5412789605043,-119.77450385756798,-176.75134045914973,336.07832957941093,-0.05493311036789095
